; generated by Slic3r 1.2.0 on 2014-10-26 at 14:18:48

; external perimeters extrusion width = 0.50mm
; perimeters extrusion width = 0.72mm
; infill extrusion width = 0.72mm
; solid infill extrusion width = 0.72mm
; top infill extrusion width = 0.72mm

G21 ; set units to millimeters
M107
M104 S200 ; set temperature
G28 ; home all axes
G1 Z5 F5000 ; lift nozzle

M109 S200 ; wait for temperature to be reached
G90 ; use absolute coordinates
G92 E0
M82 ; use absolute distances for extrusion
G1 F1800.000 E-1.00000
G92 E0
G1 Z0.350 F7800.000
G1 X124.327 Y91.222 F7800.000
G1 E1.00000 F1800.000
G1 X125.438 Y90.014 E1.05075 F600.000
G1 X127.399 Y88.826 E1.12171
G1 X129.648 Y88.377 E1.19268
G1 X131.915 Y88.722 E1.26364
G1 X133.929 Y89.819 E1.33460 F600.000
G1 X135.448 Y91.538 E1.40556
G1 X136.290 Y93.671 E1.47653
G1 X136.425 Y95.050 E1.51940
G1 X136.028 Y97.309 E1.59036
G1 X134.885 Y99.297 E1.66132
G1 X133.132 Y100.776 E1.73228
G1 X131.407 Y101.477 E1.78990
G1 X131.327 Y101.497 E1.79245
G1 X129.039 Y101.660 E1.86341
G1 X126.833 Y101.033 E1.93438
G1 X124.973 Y99.691 E2.00534
G1 X123.682 Y97.796 E2.07630
G1 X123.114 Y95.573 E2.14726
G1 X123.338 Y93.291 E2.21823
G1 X124.295 Y91.289 E2.28687
M106 S255
G1 F1800.000 E1.28687
G92 E0
G1 Z0.650 F7800.000
G1 Z0.950 F7800.000
G1 Z1.250 F7800.000
G1 Z1.550 F7800.000
G1 Z1.850 F7800.000
G1 Z2.150 F7800.000
G1 Z2.450 F7800.000
G1 Z2.750 F7800.000
G1 Z3.050 F7800.000
G1 Z3.350 F7800.000
G1 Z3.650 F7800.000
G1 Z3.950 F7800.000
G1 Z4.250 F7800.000
G1 Z4.550 F7800.000
G1 Z4.850 F7800.000
G1 Z5.150 F7800.000
G1 X124.036 Y95.551 F7800.000
G1 E1.00000 F1800.000
G1 X124.036 Y96.233 E1.01262 F600.000
G1 X123.653 Y96.329 E1.01991
G1 X123.494 Y96.025 E1.02625
G1 X123.979 Y95.600 E1.03817
G1 X123.896 Y96.031 F7800.000
G1 F1800.000 E0.03817
G92 E0
G1 Z5.450 F7800.000
G1 X78.550 Y103.550 F7800.000
G1 E1.00000 F1800.000
M106 S255
G1 X71.450 Y103.550 E1.19725 F3600.000
G1 X71.450 Y96.450 E1.39449
G1 X78.550 Y96.450 E1.59174
G1 X78.550 Y103.475 E1.78690
M106 S255
G1 X70.795 Y95.795 F7800.000
M106 S255
G1 X79.205 Y95.795 E2.02051 F3600.000
G1 X79.205 Y104.205 E2.25412
G1 X70.795 Y104.205 E2.48773
G1 X70.795 Y95.870 E2.71925
M106 S255
G1 X79.750 Y104.750 F7800.000
M106 S255
G1 X70.250 Y104.750 E2.98314 F3600.000
G1 X70.250 Y95.250 E3.24703
G1 X79.750 Y95.250 E3.51092
G1 X79.750 Y104.675 E3.77272
M106 S255
G1 X78.096 Y103.056 F7800.000
M106 S255
G1 X78.056 Y103.096 E3.77430 F3600.000
G1 X77.236 Y103.096 E3.79708
G1 X78.096 Y102.236 E3.83087
G1 X78.096 Y101.415 E3.85366
G1 X76.415 Y103.096 E3.91968
G1 X75.595 Y103.096 E3.94246
G1 X78.096 Y100.595 E4.04070
G1 X78.096 Y99.775 E4.06349
G1 X74.775 Y103.096 E4.19395
G1 X73.955 Y103.096 E4.21673
G1 X78.096 Y98.955 E4.37942
G1 X78.096 Y98.134 E4.40220
G1 X73.134 Y103.096 E4.59711
G1 X72.314 Y103.096 E4.61989
G1 X78.096 Y97.314 E4.84702
G1 X77.686 Y96.904 E4.86313
G1 X71.904 Y102.686 E5.09026
G1 X71.904 Y101.866 E5.11305
G1 X76.866 Y96.904 E5.30796
G1 X76.045 Y96.904 E5.33074
G1 X71.904 Y101.045 E5.49343
G1 X71.904 Y100.225 E5.51621
G1 X75.225 Y96.904 E5.64667
G1 X74.405 Y96.904 E5.66946
G1 X71.904 Y99.405 E5.76770
G1 X71.904 Y98.585 E5.79048
G1 X73.585 Y96.904 E5.85650
G1 X72.764 Y96.904 E5.87928
G1 X71.904 Y97.764 E5.91308
G1 X71.904 Y96.944 E5.93586
G1 X71.944 Y96.904 E5.93743
M106 S255
G1 F1800.000 E4.93743
G92 E0
G1 X123.014 Y96.145 F7800.000
G1 E1.00000 F1800.000
G1 X123.693 Y95.551 E1.01667 F600.000
G1 X123.693 Y96.319 E1.03087
G1 X123.173 Y96.449 E1.04078
G1 X123.049 Y96.211 E1.04574
G1 X123.511 Y96.087 F7800.000
G1 F1800.000 E0.04574
G92 E0
G1 Z5.750 F7800.000
G1 X78.550 Y96.450 F7800.000
G1 E1.00000 F1800.000
G1 X78.550 Y103.550 E1.19725 F600.000
G1 X71.450 Y103.550 E1.39449
G1 X71.450 Y96.450 E1.59174
G1 X78.475 Y96.450 E1.78690
G1 X79.205 Y95.795 F7800.000
G1 X79.205 Y104.205 E2.02051 F600.000
G1 X70.795 Y104.205 E2.25412
G1 X70.795 Y95.795 E2.48773
G1 X79.130 Y95.795 E2.71925
G1 X79.750 Y95.250 F7800.000
G1 X79.750 Y104.750 E2.89489 F600.000
G1 X70.250 Y104.750 E3.07053
G1 X70.250 Y95.250 E3.24617
G1 X79.675 Y95.250 E3.42042
G1 X79.500 Y95.683 F7800.000
G1 X78.056 Y96.904 F7800.000
G1 X78.096 Y96.944 E3.42199 F618.831
G1 X78.096 Y97.890 E3.44828
G1 X77.110 Y96.904 E3.48703
G1 X76.163 Y96.904 E3.51332
G1 X78.096 Y98.837 E3.58925
G1 X78.096 Y99.783 E3.61554
G1 X75.217 Y96.904 E3.72866
G1 X74.270 Y96.904 E3.75495
G1 X78.096 Y100.730 E3.90524
G1 X78.096 Y101.676 E3.93153
G1 X73.324 Y96.904 E4.11900
G1 X72.377 Y96.904 E4.14529
G1 X78.096 Y102.623 E4.36994
G1 X77.623 Y103.096 E4.38853
G1 X71.904 Y97.377 E4.61318
G1 X71.904 Y98.324 E4.63947
G1 X76.676 Y103.096 E4.82694
G1 X75.730 Y103.096 E4.85323
G1 X71.904 Y99.270 E5.00352
G1 X71.904 Y100.217 E5.02981
G1 X74.783 Y103.096 E5.14292
G1 X73.837 Y103.096 E5.16921
G1 X71.904 Y101.163 E5.24515
G1 X71.904 Y102.110 E5.27144
G1 X72.890 Y103.096 E5.31019
G1 X71.944 Y103.096 E5.33648
G1 X71.904 Y103.056 E5.33805
G1 F1800.000 E4.33805
G92 E0
G1 X122.534 Y96.265 F7800.000
G1 E1.00000 F1800.000
G1 X123.350 Y95.551 E1.02004 F600.000
G1 X123.350 Y96.405 E1.03583
G1 X122.693 Y96.569 E1.04834
G1 X122.569 Y96.331 E1.05330
G1 X123.031 Y96.207 F7800.000
G1 F1800.000 E0.05330
G92 E0
G1 Z6.050 F7800.000
G1 X78.550 Y96.450 F7800.000
G1 E1.00000 F1800.000
G1 X78.550 Y103.550 E1.19725 F600.000
G1 X71.450 Y103.550 E1.39449
G1 X71.450 Y96.450 E1.59174
G1 X78.475 Y96.450 E1.78690
G1 X79.205 Y95.795 F7800.000
G1 X79.205 Y104.205 E2.02051 F600.000
G1 X70.795 Y104.205 E2.25412
G1 X70.795 Y95.795 E2.48773
G1 X79.130 Y95.795 E2.71925
G1 X79.750 Y95.250 F7800.000
G1 X79.750 Y104.750 E2.89489 F600.000
G1 X70.250 Y104.750 E3.07053
G1 X70.250 Y95.250 E3.24617
G1 X79.675 Y95.250 E3.42042
G1 X79.500 Y95.683 F7800.000
G1 X78.096 Y103.056 F7800.000
G1 X78.056 Y103.096 E3.42199 F621.170
G1 X77.110 Y103.096 E3.44828
G1 X78.096 Y102.110 E3.48703
G1 X78.096 Y101.163 E3.51332
G1 X76.163 Y103.096 E3.58925
G1 X75.217 Y103.096 E3.61554
G1 X78.096 Y100.217 E3.72866
G1 X78.096 Y99.270 E3.75495
G1 X74.270 Y103.096 E3.90524
G1 X73.324 Y103.096 E3.93153
G1 X78.096 Y98.324 E4.11900
G1 X78.096 Y97.377 E4.14529
G1 X72.377 Y103.096 E4.36994
G1 X71.904 Y102.623 E4.38853
G1 X77.623 Y96.904 E4.61318
G1 X76.676 Y96.904 E4.63947
G1 X71.904 Y101.676 E4.82694
G1 X71.904 Y100.730 E4.85323
G1 X75.730 Y96.904 E5.00352
G1 X74.783 Y96.904 E5.02981
G1 X71.904 Y99.783 E5.14292
G1 X71.904 Y98.837 E5.16921
G1 X73.837 Y96.904 E5.24515
G1 X72.890 Y96.904 E5.27144
G1 X71.904 Y97.890 E5.31019
G1 X71.904 Y96.944 E5.33648
G1 X71.944 Y96.904 E5.33805
G1 F1800.000 E4.33805
G92 E0
G1 X122.054 Y96.385 F7800.000
G1 E1.00000 F1800.000
G1 X123.007 Y95.551 E1.02341 F600.000
G1 X123.007 Y96.491 E1.04078
G1 X122.213 Y96.689 E1.05591
G1 X122.089 Y96.451 E1.06087
G1 X122.551 Y96.327 F7800.000
G1 F1800.000 E0.06087
G92 E0
G1 Z6.350 F7800.000
G1 X78.550 Y96.450 F7800.000
G1 E1.00000 F1800.000
G1 X78.550 Y103.550 E1.19725 F600.000
G1 X71.450 Y103.550 E1.39449
G1 X71.450 Y96.450 E1.59174
G1 X78.475 Y96.450 E1.78690
G1 X79.205 Y95.795 F7800.000
G1 X79.205 Y104.205 E2.02051 F600.000
G1 X70.795 Y104.205 E2.25412
G1 X70.795 Y95.795 E2.48773
G1 X79.130 Y95.795 E2.71925
G1 X79.750 Y95.250 F7800.000
G1 X79.750 Y104.750 E2.89489 F600.000
G1 X70.250 Y104.750 E3.07053
G1 X70.250 Y95.250 E3.24617
G1 X79.675 Y95.250 E3.42042
G1 X79.500 Y95.683 F7800.000
G1 X78.056 Y96.904 F7800.000
G1 X78.096 Y96.944 E3.42199 F623.508
G1 X78.096 Y97.891 E3.44828
G1 X77.109 Y96.904 E3.48703
G1 X76.163 Y96.904 E3.51332
G1 X78.096 Y98.837 E3.58925
G1 X78.096 Y99.783 E3.61554
G1 X75.217 Y96.904 E3.72865
G1 X74.270 Y96.904 E3.75494
G1 X78.096 Y100.730 E3.90524
G1 X78.096 Y101.676 E3.93153
G1 X73.324 Y96.904 E4.11900
G1 X72.377 Y96.904 E4.14529
G1 X78.096 Y102.623 E4.36994
G1 X77.623 Y103.096 E4.38853
G1 X71.904 Y97.377 E4.61318
G1 X71.904 Y98.324 E4.63947
G1 X76.676 Y103.096 E4.82694
G1 X75.730 Y103.096 E4.85323
G1 X71.904 Y99.270 E5.00352
G1 X71.904 Y100.217 E5.02981
G1 X74.783 Y103.096 E5.14292
G1 X73.837 Y103.096 E5.16921
G1 X71.904 Y101.163 E5.24514
G1 X71.904 Y102.110 E5.27143
G1 X72.890 Y103.096 E5.31018
G1 X71.944 Y103.096 E5.33647
G1 X71.904 Y103.056 E5.33804
G1 F1800.000 E4.33804
G92 E0
G1 X121.574 Y96.505 F7800.000
G1 E1.00000 F1800.000
G1 X122.664 Y95.551 E1.02678 F600.000
G1 X122.664 Y96.576 E1.04574
G1 X121.733 Y96.809 E1.06348
G1 X121.609 Y96.571 E1.06844
G1 X122.071 Y96.447 F7800.000
G1 F1800.000 E0.06844
G92 E0
G1 Z6.650 F7800.000
G1 X78.550 Y96.450 F7800.000
G1 E1.00000 F1800.000
G1 X78.550 Y103.550 E1.19725 F600.000
G1 X71.450 Y103.550 E1.39449
G1 X71.450 Y96.450 E1.59174
G1 X78.475 Y96.450 E1.78690
G1 X79.205 Y95.795 F7800.000
G1 X79.205 Y104.205 E2.02051 F600.000
G1 X70.795 Y104.205 E2.25412
G1 X70.795 Y95.795 E2.48773
G1 X79.130 Y95.795 E2.71925
G1 X79.750 Y95.250 F7800.000
G1 X79.750 Y104.750 E2.89489 F600.000
G1 X70.250 Y104.750 E3.07053
G1 X70.250 Y95.250 E3.24617
G1 X79.675 Y95.250 E3.42042
G1 X79.500 Y95.683 F7800.000
G1 X78.096 Y103.056 F7800.000
G1 X78.056 Y103.096 E3.42199 F625.847
G1 X77.109 Y103.096 E3.44828
G1 X78.096 Y102.110 E3.48703
G1 X78.096 Y101.163 E3.51332
G1 X76.163 Y103.096 E3.58925
G1 X75.217 Y103.096 E3.61554
G1 X78.096 Y100.217 E3.72865
G1 X78.096 Y99.270 E3.75494
G1 X74.270 Y103.096 E3.90524
G1 X73.324 Y103.096 E3.93153
G1 X78.096 Y98.324 E4.11900
G1 X78.096 Y97.377 E4.14529
G1 X72.377 Y103.096 E4.36994
G1 X71.904 Y102.623 E4.38853
G1 X77.623 Y96.904 E4.61318
G1 X76.676 Y96.904 E4.63947
G1 X71.904 Y101.676 E4.82694
G1 X71.904 Y100.730 E4.85323
G1 X75.730 Y96.904 E5.00352
G1 X74.783 Y96.904 E5.02981
G1 X71.904 Y99.783 E5.14292
G1 X71.904 Y98.837 E5.16921
G1 X73.837 Y96.904 E5.24514
G1 X72.890 Y96.904 E5.27143
G1 X71.904 Y97.891 E5.31018
G1 X71.904 Y96.944 E5.33647
G1 X71.944 Y96.904 E5.33804
G1 F1800.000 E4.33804
G92 E0
G1 X121.094 Y96.625 F7800.000
G1 E1.00000 F1800.000
G1 X122.321 Y95.551 E1.03015 F600.000
G1 X122.321 Y96.662 E1.05069
G1 X121.253 Y96.929 E1.07105
G1 X121.129 Y96.691 E1.07601
G1 X121.591 Y96.567 F7800.000
G1 F1800.000 E0.07601
G92 E0
G1 Z6.950 F7800.000
G1 X78.550 Y96.450 F7800.000
G1 E1.00000 F1800.000
G1 X78.550 Y103.550 E1.19725 F600.000
G1 X71.450 Y103.550 E1.39449
G1 X71.450 Y96.450 E1.59174
G1 X78.475 Y96.450 E1.78690
G1 X79.205 Y95.795 F7800.000
G1 X79.205 Y104.205 E2.02051 F600.000
G1 X70.795 Y104.205 E2.25412
G1 X70.795 Y95.795 E2.48773
G1 X79.130 Y95.795 E2.71925
G1 X79.750 Y95.250 F7800.000
G1 X79.750 Y104.750 E2.89489 F600.000
G1 X70.250 Y104.750 E3.07053
G1 X70.250 Y95.250 E3.24617
G1 X79.675 Y95.250 E3.42042
G1 X79.500 Y95.683 F7800.000
G1 X78.056 Y96.904 F7800.000
G1 X78.096 Y96.944 E3.42199 F628.186
G1 X78.096 Y97.891 E3.44828
G1 X77.109 Y96.904 E3.48703
G1 X76.163 Y96.904 E3.51332
G1 X78.096 Y98.837 E3.58925
G1 X78.096 Y99.783 E3.61554
G1 X75.217 Y96.904 E3.72865
G1 X74.270 Y96.904 E3.75494
G1 X78.096 Y100.730 E3.90524
G1 X78.096 Y101.676 E3.93153
G1 X73.324 Y96.904 E4.11900
G1 X72.377 Y96.904 E4.14529
G1 X78.096 Y102.623 E4.36994
G1 X77.623 Y103.096 E4.38853
G1 X71.904 Y97.377 E4.61318
G1 X71.904 Y98.324 E4.63947
G1 X76.676 Y103.096 E4.82694
G1 X75.730 Y103.096 E4.85323
G1 X71.904 Y99.270 E5.00352
G1 X71.904 Y100.217 E5.02981
G1 X74.783 Y103.096 E5.14292
G1 X73.837 Y103.096 E5.16921
G1 X71.904 Y101.163 E5.24514
G1 X71.904 Y102.110 E5.27143
G1 X72.890 Y103.096 E5.31018
G1 X71.944 Y103.096 E5.33647
G1 X71.904 Y103.056 E5.33804
G1 F1800.000 E4.33804
G92 E0
G1 X120.614 Y96.745 F7800.000
G1 E1.00000 F1800.000
G1 X121.979 Y95.551 E1.03352 F600.000
G1 X121.979 Y96.748 E1.05564
G1 X120.773 Y97.049 E1.07861
G1 X120.649 Y96.811 E1.08357
G1 X121.111 Y96.687 F7800.000
G1 F1800.000 E0.08357
G92 E0
G1 Z7.250 F7800.000
G1 X78.550 Y96.450 F7800.000
G1 E1.00000 F1800.000
G1 X78.550 Y103.550 E1.19725 F600.000
G1 X71.450 Y103.550 E1.39449
G1 X71.450 Y96.450 E1.59174
G1 X78.475 Y96.450 E1.78690
G1 X79.205 Y95.795 F7800.000
G1 X79.205 Y104.205 E2.02051 F600.000
G1 X70.795 Y104.205 E2.25412
G1 X70.795 Y95.795 E2.48773
G1 X79.130 Y95.795 E2.71925
G1 X79.750 Y95.250 F7800.000
G1 X79.750 Y104.750 E2.89489 F600.000
G1 X70.250 Y104.750 E3.07053
G1 X70.250 Y95.250 E3.24617
G1 X79.675 Y95.250 E3.42042
G1 X79.500 Y95.683 F7800.000
G1 X78.096 Y103.056 F7800.000
G1 X78.056 Y103.096 E3.42199 F630.525
G1 X77.109 Y103.096 E3.44828
G1 X78.096 Y102.110 E3.48703
G1 X78.096 Y101.163 E3.51332
G1 X76.163 Y103.096 E3.58925
G1 X75.217 Y103.096 E3.61554
G1 X78.096 Y100.217 E3.72865
G1 X78.096 Y99.270 E3.75494
G1 X74.270 Y103.096 E3.90524
G1 X73.324 Y103.096 E3.93153
G1 X78.096 Y98.324 E4.11900
G1 X78.096 Y97.377 E4.14529
G1 X72.377 Y103.096 E4.36994
G1 X71.904 Y102.623 E4.38853
G1 X77.623 Y96.904 E4.61318
G1 X76.676 Y96.904 E4.63947
G1 X71.904 Y101.676 E4.82694
G1 X71.904 Y100.730 E4.85323
G1 X75.730 Y96.904 E5.00352
G1 X74.783 Y96.904 E5.02981
G1 X71.904 Y99.783 E5.14292
G1 X71.904 Y98.837 E5.16921
G1 X73.837 Y96.904 E5.24514
G1 X72.890 Y96.904 E5.27143
G1 X71.904 Y97.891 E5.31018
G1 X71.904 Y96.944 E5.33647
G1 X71.944 Y96.904 E5.33804
G1 F1800.000 E4.33804
G92 E0
G1 X120.134 Y96.865 F7800.000
G1 E1.00000 F1800.000
G1 X121.636 Y95.551 E1.03689 F600.000
G1 X121.636 Y96.833 E1.06060
G1 X120.293 Y97.169 E1.08618
G1 X120.169 Y96.931 E1.09114
G1 X120.631 Y96.807 F7800.000
G1 F1800.000 E0.09114
G92 E0
G1 Z7.550 F7800.000
G1 X78.550 Y96.450 F7800.000
G1 E1.00000 F1800.000
G1 X78.550 Y103.550 E1.19725 F600.000
G1 X71.450 Y103.550 E1.39449
G1 X71.450 Y96.450 E1.59174
G1 X78.475 Y96.450 E1.78690
G1 X79.205 Y95.795 F7800.000
G1 X79.205 Y104.205 E2.02051 F600.000
G1 X70.795 Y104.205 E2.25412
G1 X70.795 Y95.795 E2.48773
G1 X79.130 Y95.795 E2.71925
G1 X79.750 Y95.250 F7800.000
G1 X79.750 Y104.750 E2.89489 F600.000
G1 X70.250 Y104.750 E3.07053
G1 X70.250 Y95.250 E3.24617
G1 X79.675 Y95.250 E3.42042
G1 X79.500 Y95.683 F7800.000
G1 X78.056 Y96.904 F7800.000
G1 X78.096 Y96.944 E3.42199 F632.864
G1 X78.096 Y97.891 E3.44828
G1 X77.109 Y96.904 E3.48703
G1 X76.163 Y96.904 E3.51332
G1 X78.096 Y98.837 E3.58925
G1 X78.096 Y99.783 E3.61554
G1 X75.217 Y96.904 E3.72865
G1 X74.270 Y96.904 E3.75494
G1 X78.096 Y100.730 E3.90524
G1 X78.096 Y101.676 E3.93153
G1 X73.324 Y96.904 E4.11900
G1 X72.377 Y96.904 E4.14529
G1 X78.096 Y102.623 E4.36994
G1 X77.623 Y103.096 E4.38853
G1 X71.904 Y97.377 E4.61318
G1 X71.904 Y98.324 E4.63947
G1 X76.676 Y103.096 E4.82694
G1 X75.730 Y103.096 E4.85323
G1 X71.904 Y99.270 E5.00352
G1 X71.904 Y100.217 E5.02981
G1 X74.783 Y103.096 E5.14292
G1 X73.837 Y103.096 E5.16921
G1 X71.904 Y101.163 E5.24514
G1 X71.904 Y102.110 E5.27143
G1 X72.890 Y103.096 E5.31018
G1 X71.944 Y103.096 E5.33647
G1 X71.904 Y103.056 E5.33804
G1 F1800.000 E4.33804
G92 E0
G1 X119.654 Y96.985 F7800.000
G1 E1.00000 F1800.000
G1 X121.293 Y95.551 E1.04026 F600.000
G1 X121.293 Y96.919 E1.06555
G1 X119.813 Y97.289 E1.09375
G1 X119.689 Y97.051 E1.09871
G1 X120.151 Y96.927 F7800.000
G1 F1800.000 E0.09871
G92 E0
G1 Z7.850 F7800.000
G1 X78.550 Y96.450 F7800.000
G1 E1.00000 F1800.000
G1 X78.550 Y103.550 E1.19725 F600.000
G1 X71.450 Y103.550 E1.39449
G1 X71.450 Y96.450 E1.59174
G1 X78.475 Y96.450 E1.78690
G1 X79.205 Y95.795 F7800.000
G1 X79.205 Y104.205 E2.02051 F600.000
G1 X70.795 Y104.205 E2.25412
G1 X70.795 Y95.795 E2.48773
G1 X79.130 Y95.795 E2.71925
G1 X79.750 Y95.250 F7800.000
G1 X79.750 Y104.750 E2.89489 F600.000
G1 X70.250 Y104.750 E3.07053
G1 X70.250 Y95.250 E3.24617
G1 X79.675 Y95.250 E3.42042
G1 X79.500 Y95.683 F7800.000
G1 X78.096 Y103.056 F7800.000
G1 X78.056 Y103.096 E3.42199 F635.203
G1 X77.109 Y103.096 E3.44828
G1 X78.096 Y102.110 E3.48703
G1 X78.096 Y101.163 E3.51332
G1 X76.163 Y103.096 E3.58925
G1 X75.217 Y103.096 E3.61554
G1 X78.096 Y100.217 E3.72865
G1 X78.096 Y99.270 E3.75494
G1 X74.270 Y103.096 E3.90524
G1 X73.324 Y103.096 E3.93153
G1 X78.096 Y98.324 E4.11900
G1 X78.096 Y97.377 E4.14529
G1 X72.377 Y103.096 E4.36994
G1 X71.904 Y102.623 E4.38853
G1 X77.623 Y96.904 E4.61318
G1 X76.676 Y96.904 E4.63947
G1 X71.904 Y101.676 E4.82694
G1 X71.904 Y100.730 E4.85323
G1 X75.730 Y96.904 E5.00352
G1 X74.783 Y96.904 E5.02981
G1 X71.904 Y99.783 E5.14292
G1 X71.904 Y98.837 E5.16921
G1 X73.837 Y96.904 E5.24514
