; generated by Slic3r 1.2.2-dev on 2014-11-30 at 23:52:58

; external perimeters extrusion width = 0.50mm
; perimeters extrusion width = 0.72mm
; infill extrusion width = 0.72mm
; solid infill extrusion width = 0.72mm
; top infill extrusion width = 0.72mm

M107
M104 S200 ; set temperature
G28 ; home all axes
G1 Z5 F5000 ; lift nozzle

M109 S200 ; wait for temperature to be reached
G21 ; set units to millimeters
G90 ; use absolute coordinates
M82 ; use absolute distances for extrusion
G92 E0
G1 E-1.00000 F1800.00000
G92 E0
G1 Z0.350 F7800.000
G1 X107.415 Y83.253 F7800.000
G1 E1.00000 F1800.00000
G1 X109.168 Y81.774 E1.07096 F1080.000
G1 X111.320 Y80.981 E1.14192
G1 X112.500 Y80.875 E1.17858
G1 X137.500 Y80.875 E1.95211
G1 X139.759 Y81.272 E2.02307
G1 X141.747 Y82.415 E2.09403 F1080.000
G1 X143.226 Y84.168 E2.16500
G1 X144.019 Y86.320 E2.23596
G1 X144.125 Y87.500 E2.27261
G1 X144.125 Y112.500 E3.04614
G1 X143.728 Y114.759 E3.11710
G1 X142.585 Y116.747 E3.18807
G1 X140.832 Y118.226 E3.25903
G1 X138.680 Y119.019 E3.32999
G1 X137.500 Y119.125 E3.36664
G1 X112.500 Y119.125 E4.14017
G1 X110.241 Y118.728 E4.21114
G1 X108.253 Y117.585 E4.28210
G1 X106.774 Y115.832 E4.35306
G1 X105.981 Y113.680 E4.42402
G1 X105.875 Y112.500 E4.46068
G1 X105.875 Y87.500 E5.23421
G1 X106.272 Y85.241 E5.30517
G1 X107.378 Y83.318 E5.37381
G1 E4.37381 F1800.00000
G92 E0
G1 X114.100 Y89.100 F7800.000
G1 E1.00000 F1800.00000
G1 X135.900 Y89.100 E1.67453 F540.000
G1 X135.900 Y110.900 E2.34907
G1 X114.100 Y110.900 E3.02360
G1 X114.100 Y89.175 E3.69582
G1 X113.475 Y88.475 F7800.000
G1 X136.525 Y88.475 E4.40902 F540.000
G1 X136.525 Y111.525 E5.12223
G1 X113.475 Y111.525 E5.83543
G1 X113.475 Y88.550 E6.54631
G1 X112.850 Y87.850 F7800.000
G1 X137.150 Y87.850 E7.29819 F378.000
G1 X137.150 Y112.150 E8.05006
G1 X112.850 Y112.150 E8.80193
G1 X112.850 Y87.925 E9.55149
G1 X113.283 Y88.100 F7800.000
G1 X114.533 Y110.427 F7800.000
G1 X114.573 Y110.467 E9.55324 F1080.000
G1 X115.462 Y110.467 E9.58075
G1 X114.533 Y109.538 E9.62141
G1 X114.533 Y108.649 E9.64892
G1 X116.351 Y110.467 E9.72848
G1 X117.240 Y110.467 E9.75599
G1 X114.533 Y107.760 E9.87446
G1 X114.533 Y106.871 E9.90197
G1 X118.129 Y110.467 E10.05934
G1 X119.018 Y110.467 E10.08685
G1 X114.533 Y105.982 E10.28313
G1 X114.533 Y105.092 E10.31064
G1 X119.908 Y110.467 E10.54583
G1 X120.797 Y110.467 E10.57334
G1 X114.533 Y104.203 E10.84743
G1 X114.533 Y103.314 E10.87494
G1 X121.686 Y110.467 E11.18794
G1 X122.575 Y110.467 E11.21545
G1 X114.533 Y102.425 E11.56735
G1 X114.533 Y101.536 E11.59486
G1 X123.464 Y110.467 E11.98567
G1 X124.353 Y110.467 E12.01318
G1 X114.533 Y100.647 E12.44290
G1 X114.533 Y99.758 E12.47041
G1 X125.242 Y110.467 E12.93903
G1 X126.131 Y110.467 E12.96654
G1 X114.533 Y98.869 E13.47407
G1 X114.533 Y97.979 E13.50158
G1 X127.021 Y110.467 E14.04801
G1 X127.910 Y110.467 E14.07552
G1 X114.533 Y97.090 E14.66086
G1 X114.533 Y96.201 E14.68837
G1 X128.799 Y110.467 E15.31262
G1 X129.688 Y110.467 E15.34013
G1 X114.533 Y95.312 E16.00328
G1 X114.533 Y94.423 E16.03079
G1 X130.577 Y110.467 E16.73285
G1 X131.466 Y110.467 E16.76036
G1 X114.533 Y93.534 E17.50132
G1 X114.533 Y92.645 E17.52883
G1 X132.355 Y110.467 E18.30870
G1 X133.244 Y110.467 E18.33621
G1 X114.533 Y91.756 E19.15498
G1 X114.533 Y90.866 E19.18250
G1 X134.134 Y110.467 E20.04018
G1 X135.023 Y110.467 E20.06769
G1 X114.533 Y89.977 E20.96427
G1 X114.977 Y89.533 E20.98373
G1 X135.467 Y110.023 E21.88031
G1 X135.467 Y109.134 E21.90782
G1 X115.866 Y89.533 E22.76550
G1 X116.756 Y89.533 E22.79301
G1 X135.467 Y108.244 E23.61179
G1 X135.467 Y107.355 E23.63930
G1 X117.645 Y89.533 E24.41917
G1 X118.534 Y89.533 E24.44668
G1 X135.467 Y106.466 E25.18764
G1 X135.467 Y105.577 E25.21515
G1 X119.423 Y89.533 E25.91721
G1 X120.312 Y89.533 E25.94472
G1 X135.467 Y104.688 E26.60787
G1 X135.467 Y103.799 E26.63538
G1 X121.201 Y89.533 E27.25963
G1 X122.090 Y89.533 E27.28714
G1 X135.467 Y102.910 E27.87248
G1 X135.467 Y102.021 E27.89999
G1 X122.979 Y89.533 E28.44642
G1 X123.869 Y89.533 E28.47393
G1 X135.467 Y101.131 E28.98146
G1 X135.467 Y100.242 E29.00897
G1 X124.758 Y89.533 E29.47759
G1 X125.647 Y89.533 E29.50510
G1 X135.467 Y99.353 E29.93482
G1 X135.467 Y98.464 E29.96233
G1 X126.536 Y89.533 E30.35314
G1 X127.425 Y89.533 E30.38065
G1 X135.467 Y97.575 E30.73255
G1 X135.467 Y96.686 E30.76006
G1 X128.314 Y89.533 E31.07306
G1 X129.203 Y89.533 E31.10057
G1 X135.467 Y95.797 E31.37466
G1 X135.467 Y94.908 E31.40217
G1 X130.092 Y89.533 E31.63736
G1 X130.982 Y89.533 E31.66487
G1 X135.467 Y94.018 E31.86115
G1 X135.467 Y93.129 E31.88866
G1 X131.871 Y89.533 E32.04603
G1 X132.760 Y89.533 E32.07354
G1 X135.467 Y92.240 E32.19201
G1 X135.467 Y91.351 E32.21952
G1 X133.649 Y89.533 E32.29908
G1 X134.538 Y89.533 E32.32659
G1 X135.467 Y90.462 E32.36725
G1 X135.467 Y89.573 E32.39476
G1 X135.427 Y89.533 E32.39651
M106 S255
G1 E31.39651 F1800.00000
G92 E0
G1 Z0.650 F7800.000
G1 X136.050 Y88.950 F7800.000
G1 E1.00000 F1800.00000
G1 X136.050 Y111.050 E1.61391 F1360.920
G1 X113.950 Y111.050 E2.22783
G1 X113.950 Y88.950 E2.84174
G1 X135.975 Y88.950 E3.45357
G1 X136.705 Y88.295 F7800.000
G1 X136.705 Y111.705 E4.10385 F1360.920
G1 X113.295 Y111.705 E4.75412
G1 X113.295 Y88.295 E5.40439
G1 X136.630 Y88.295 E6.05259
G1 X137.250 Y87.750 F7800.000
G1 X137.250 Y112.250 E6.50555 F952.644
G1 X112.750 Y112.250 E6.95851
G1 X112.750 Y87.750 E7.41147
G1 X137.175 Y87.750 E7.86305
G1 X137.000 Y88.183 F7800.000
G1 X114.444 Y89.404 F7800.000
G1 X114.404 Y89.444 E7.86462 F2721.839
G1 X114.404 Y90.384 E7.89073
G1 X115.384 Y89.404 E7.92923
G1 X116.324 Y89.404 E7.95535
G1 X114.404 Y91.324 E8.03078
G1 X114.404 Y92.264 E8.05689
G1 X117.264 Y89.404 E8.16925
G1 X118.204 Y89.404 E8.19537
G1 X114.404 Y93.204 E8.34466
G1 X114.404 Y94.144 E8.37077
G1 X119.144 Y89.404 E8.55699
G1 X120.085 Y89.404 E8.58311
G1 X114.404 Y95.085 E8.80626
G1 X114.404 Y96.025 E8.83237
G1 X121.025 Y89.404 E9.09245
G1 X121.965 Y89.404 E9.11857
G1 X114.404 Y96.965 E9.41558
G1 X114.404 Y97.905 E9.44169
G1 X122.905 Y89.404 E9.77563
G1 X123.845 Y89.404 E9.80175
G1 X114.404 Y98.845 E10.17262
G1 X114.404 Y99.785 E10.19873
G1 X124.785 Y89.404 E10.60653
G1 X125.725 Y89.404 E10.63265
G1 X114.404 Y100.725 E11.07738
G1 X114.404 Y101.665 E11.10349
G1 X126.665 Y89.404 E11.58515
G1 X127.605 Y89.404 E11.61127
G1 X114.404 Y102.605 E12.12986
G1 X114.404 Y103.545 E12.15597
G1 X128.545 Y89.404 E12.71149
G1 X129.485 Y89.404 E12.73761
G1 X114.404 Y104.485 E13.33006
G1 X114.404 Y105.425 E13.35617
G1 X130.425 Y89.404 E13.98555
G1 X131.366 Y89.404 E14.01167
G1 X114.404 Y106.366 E14.67798
G1 X114.404 Y107.306 E14.70409
G1 X132.306 Y89.404 E15.40733
G1 X133.246 Y89.404 E15.43345
G1 X114.404 Y108.246 E16.17362
G1 X114.404 Y109.186 E16.19973
G1 X134.186 Y89.404 E16.97683
G1 X135.126 Y89.404 E17.00295
G1 X114.404 Y110.126 E17.81698
G1 X114.874 Y110.596 E17.83545
G1 X135.596 Y89.874 E18.64948
G1 X135.596 Y90.814 E18.67559
G1 X115.814 Y110.596 E19.45269
G1 X116.754 Y110.596 E19.47881
G1 X135.596 Y91.754 E20.21898
G1 X135.596 Y92.694 E20.24509
G1 X117.694 Y110.596 E20.94833
G1 X118.634 Y110.596 E20.97445
G1 X135.596 Y93.634 E21.64076
G1 X135.596 Y94.575 E21.66687
G1 X119.575 Y110.596 E22.29625
G1 X120.515 Y110.596 E22.32237
G1 X135.596 Y95.515 E22.91482
G1 X135.596 Y96.455 E22.94093
G1 X121.455 Y110.596 E23.49645
G1 X122.395 Y110.596 E23.52257
G1 X135.596 Y97.395 E24.04116
G1 X135.596 Y98.335 E24.06727
G1 X123.335 Y110.596 E24.54893
G1 X124.275 Y110.596 E24.57505
G1 X135.596 Y99.275 E25.01978
G1 X135.596 Y100.215 E25.04589
G1 X125.215 Y110.596 E25.45369
G1 X126.155 Y110.596 E25.47981
G1 X135.596 Y101.155 E25.85068
G1 X135.596 Y102.095 E25.87679
G1 X127.095 Y110.596 E26.21073
G1 X128.035 Y110.596 E26.23685
G1 X135.596 Y103.035 E26.53386
G1 X135.596 Y103.975 E26.55997
G1 X128.975 Y110.596 E26.82005
G1 X129.915 Y110.596 E26.84617
G1 X135.596 Y104.915 E27.06932
G1 X135.596 Y105.856 E27.09543
G1 X130.856 Y110.596 E27.28165
G1 X131.796 Y110.596 E27.30777
G1 X135.596 Y106.796 E27.45706
G1 X135.596 Y107.736 E27.48317
G1 X132.736 Y110.596 E27.59553
G1 X133.676 Y110.596 E27.62165
G1 X135.596 Y108.676 E27.69708
G1 X135.596 Y109.616 E27.72319
G1 X134.616 Y110.596 E27.76169
G1 X135.556 Y110.596 E27.78781
G1 X135.596 Y110.556 E27.78938
G1 E26.78938 F1800.00000
G92 E0
G1 Z0.950 F7800.000
G1 X136.050 Y111.050 F7800.000
G1 E1.00000 F1800.00000
G1 X113.950 Y111.050 E1.61391 F1360.920
G1 X113.950 Y88.950 E2.22783
G1 X136.050 Y88.950 E2.84174
G1 X136.050 Y110.975 E3.45357
G1 X136.705 Y111.705 F7800.000
G1 X113.295 Y111.705 E4.10385 F1360.920
G1 X113.295 Y88.295 E4.75412
G1 X136.705 Y88.295 E5.40439
G1 X136.705 Y111.630 E6.05259
G1 X137.250 Y112.250 F7800.000
G1 X112.750 Y112.250 E6.50555 F952.644
G1 X112.750 Y87.750 E6.95851
G1 X137.250 Y87.750 E7.41147
G1 X137.250 Y112.175 E7.86305
G1 X136.817 Y112.000 F7800.000
G1 X135.556 Y89.404 F7800.000
G1 X135.596 Y89.444 E7.86462 F2721.839
G1 X135.596 Y90.384 E7.89073
G1 X134.616 Y89.404 E7.92924
G1 X133.676 Y89.404 E7.95535
G1 X135.596 Y91.324 E8.03078
G1 X135.596 Y92.264 E8.05689
G1 X132.736 Y89.404 E8.16925
G1 X131.796 Y89.404 E8.19537
G1 X135.596 Y93.204 E8.34466
G1 X135.596 Y94.144 E8.37077
G1 X130.856 Y89.404 E8.55699
G1 X129.915 Y89.404 E8.58311
G1 X135.596 Y95.085 E8.80626
G1 X135.596 Y96.025 E8.83237
G1 X128.975 Y89.404 E9.09245
G1 X128.035 Y89.404 E9.11857
G1 X135.596 Y96.965 E9.41558
G1 X135.596 Y97.905 E9.44169
G1 X127.095 Y89.404 E9.77563
G1 X126.155 Y89.404 E9.80175
G1 X135.596 Y98.845 E10.17262
G1 X135.596 Y99.785 E10.19873
G1 X125.215 Y89.404 E10.60653
G1 X124.275 Y89.404 E10.63265
G1 X135.596 Y100.725 E11.07738
G1 X135.596 Y101.665 E11.10349
G1 X123.335 Y89.404 E11.58515
G1 X122.395 Y89.404 E11.61127
G1 X135.596 Y102.605 E12.12986
G1 X135.596 Y103.545 E12.15597
G1 X121.455 Y89.404 E12.71150
G1 X120.515 Y89.404 E12.73761
G1 X135.596 Y104.485 E13.33006
G1 X135.596 Y105.425 E13.35617
G1 X119.575 Y89.404 E13.98556
G1 X118.634 Y89.404 E14.01167
G1 X135.596 Y106.366 E14.67798
G1 X135.596 Y107.306 E14.70409
G1 X117.694 Y89.404 E15.40734
G1 X116.754 Y89.404 E15.43345
G1 X135.596 Y108.246 E16.17362
G1 X135.596 Y109.186 E16.19973
G1 X115.814 Y89.404 E16.97684
G1 X114.874 Y89.404 E17.00295
G1 X135.596 Y110.126 E17.81698
G1 X135.126 Y110.596 E17.83545
G1 X114.404 Y89.874 E18.64948
G1 X114.404 Y90.814 E18.67559
G1 X134.186 Y110.596 E19.45269
G1 X133.246 Y110.596 E19.47881
G1 X114.404 Y91.754 E20.21898
G1 X114.404 Y92.694 E20.24509
G1 X132.306 Y110.596 E20.94833
G1 X131.366 Y110.596 E20.97445
G1 X114.404 Y93.634 E21.64076
G1 X114.404 Y94.575 E21.66687
G1 X130.425 Y110.596 E22.29625
G1 X129.485 Y110.596 E22.32237
G1 X114.404 Y95.515 E22.91482
G1 X114.404 Y96.455 E22.94093
G1 X128.545 Y110.596 E23.49645
G1 X127.605 Y110.596 E23.52257
G1 X114.404 Y97.395 E24.04116
G1 X114.404 Y98.335 E24.06727
G1 X126.665 Y110.596 E24.54893
G1 X125.725 Y110.596 E24.57505
G1 X114.404 Y99.275 E25.01978
G1 X114.404 Y100.215 E25.04589
G1 X124.785 Y110.596 E25.45369
G1 X123.845 Y110.596 E25.47981
G1 X114.404 Y101.155 E25.85068
G1 X114.404 Y102.095 E25.87679
G1 X122.905 Y110.596 E26.21073
G1 X121.965 Y110.596 E26.23685
G1 X114.404 Y103.035 E26.53386
G1 X114.404 Y103.975 E26.55997
G1 X121.025 Y110.596 E26.82005
G1 X120.085 Y110.596 E26.84617
G1 X114.404 Y104.915 E27.06932
G1 X114.404 Y105.856 E27.09543
G1 X119.144 Y110.596 E27.28165
G1 X118.204 Y110.596 E27.30777
G1 X114.404 Y106.796 E27.45706
G1 X114.404 Y107.736 E27.48317
G1 X117.264 Y110.596 E27.59553
G1 X116.324 Y110.596 E27.62164
G1 X114.404 Y108.676 E27.69708
G1 X114.404 Y109.616 E27.72319
G1 X115.384 Y110.596 E27.76169
G1 X114.444 Y110.596 E27.78780
G1 X114.404 Y110.556 E27.78938
G1 E26.78938 F1800.00000
G92 E0
G1 Z1.250 F7800.000
G1 X113.950 Y111.050 F7800.000
G1 E1.00000 F1800.00000
G1 X113.950 Y88.950 E1.61391 F1003.701
G1 X136.050 Y88.950 E2.22783
G1 X136.050 Y111.050 E2.84174
G1 X114.025 Y111.050 E3.45357
G1 X113.295 Y111.705 F7800.000
G1 X113.295 Y88.295 E4.10385 F1003.701
G1 X136.705 Y88.295 E4.75412
G1 X136.705 Y111.705 E5.40439
G1 X113.370 Y111.705 E6.05259
G1 X112.750 Y112.250 F7800.000
G1 X112.750 Y87.750 E6.50555 F702.591
G1 X137.250 Y87.750 E6.95851
G1 X137.250 Y112.250 E7.41147
G1 X112.825 Y112.250 E7.86305
G1 X113.000 Y111.817 F7800.000
G1 X114.424 Y109.640 F7800.000
G1 X115.002 Y109.795 E7.87967 F2007.402
G1 X116.605 Y108.192 E7.94265
G1 X116.312 Y107.097 E7.97414
G1 X117.915 Y105.493 E8.03712
G1 X119.010 Y105.787 E8.06861
G1 X120.613 Y104.184 E8.13159
G1 X120.320 Y103.089 E8.16308
G1 X121.923 Y101.485 E8.22606
G1 X123.018 Y101.779 E8.25755
G1 X124.621 Y100.176 E8.32053
G1 X124.328 Y99.081 E8.35202
G1 X125.931 Y97.477 E8.41499
G1 X127.026 Y97.771 E8.44648
G1 X128.629 Y96.168 E8.50946
G1 X128.336 Y95.073 E8.54095
G1 X129.939 Y93.469 E8.60393
G1 X131.034 Y93.763 E8.63542
G1 X132.637 Y92.160 E8.69840
G1 X132.344 Y91.065 E8.72989
G1 X133.947 Y89.461 E8.79287
G1 X135.042 Y89.755 E8.82436
G1 X135.373 Y89.424 E8.83735
G1 X135.576 Y90.146 E8.85820
G1 X135.505 Y90.218 E8.86100
G1 X135.576 Y90.483 E8.86864
G1 X135.576 Y91.535 E8.89785
G1 X134.195 Y92.916 E8.95210
G1 X133.100 Y92.622 E8.98359
G1 X131.497 Y94.226 E9.04657
G1 X131.790 Y95.321 E9.07806
G1 X130.187 Y96.924 E9.14103
G1 X129.092 Y96.630 E9.17252
G1 X127.489 Y98.234 E9.23550
G1 X127.782 Y99.329 E9.26699
G1 X126.179 Y100.932 E9.32997
G1 X125.084 Y100.638 E9.36146
G1 X123.481 Y102.242 E9.42444
G1 X123.774 Y103.337 E9.45593
G1 X122.171 Y104.940 E9.51891
G1 X121.076 Y104.646 E9.55040
G1 X119.473 Y106.250 E9.61338
G1 X119.766 Y107.345 E9.64487
G1 X118.163 Y108.948 E9.70785
G1 X117.068 Y108.654 E9.73934
G1 X115.465 Y110.258 E9.80231
G1 X115.550 Y110.576 E9.81147
G1 X118.849 Y110.576 F7800.000
G1 X118.919 Y110.506 E9.81424 F2007.402
G1 X118.626 Y109.411 E9.84573
G1 X120.229 Y107.807 E9.90871
G1 X121.324 Y108.101 E9.94020
G1 X122.927 Y106.498 E10.00318
G1 X122.634 Y105.403 E10.03467
G1 X124.237 Y103.799 E10.09764
G1 X125.332 Y104.093 E10.12913
G1 X126.935 Y102.490 E10.19211
G1 X126.642 Y101.395 E10.22360
G1 X128.245 Y99.791 E10.28658
G1 X129.340 Y100.085 E10.31807
G1 X130.943 Y98.482 E10.38105
G1 X130.650 Y97.387 E10.41254
G1 X132.253 Y95.783 E10.47552
G1 X133.348 Y96.077 E10.50701
G1 X134.951 Y94.474 E10.56999
G1 X134.658 Y93.379 E10.60148
G1 X135.576 Y92.460 E10.63755
G1 X135.576 Y94.980 E10.70753
G1 X135.414 Y94.936 E10.71219
G1 X133.811 Y96.540 E10.77517
G1 X134.104 Y97.635 E10.80666
G1 X132.501 Y99.238 E10.86964
G1 X131.406 Y98.944 E10.90113
G1 X129.803 Y100.548 E10.96411
G1 X130.096 Y101.643 E10.99559
G1 X128.493 Y103.246 E11.05857
G1 X127.398 Y102.952 E11.09006
G1 X125.795 Y104.556 E11.15304
G1 X126.088 Y105.651 E11.18453
G1 X124.485 Y107.254 E11.24751
G1 X123.390 Y106.960 E11.27900
G1 X121.787 Y108.564 E11.34198
G1 X122.080 Y109.659 E11.37347
G1 X121.163 Y110.576 E11.40951
G1 X122.088 Y110.576 E11.43522
G1 X122.543 Y110.121 E11.45308
G1 X123.638 Y110.415 E11.48457
G1 X125.241 Y108.812 E11.54755
G1 X124.948 Y107.717 E11.57904
G1 X126.551 Y106.113 E11.64202
G1 X127.646 Y106.407 E11.67350
G1 X129.249 Y104.804 E11.73648
G1 X128.956 Y103.709 E11.76797
G1 X130.559 Y102.105 E11.83095
G1 X131.654 Y102.399 E11.86244
G1 X133.257 Y100.796 E11.92542
G1 X132.964 Y99.701 E11.95691
G1 X134.567 Y98.097 E12.01989
G1 X135.576 Y98.368 E12.04891
G1 X135.576 Y100.791 E12.11621
G1 X134.815 Y101.552 E12.14611
G1 X133.720 Y101.258 E12.17760
G1 X132.117 Y102.862 E12.24058
G1 X132.410 Y103.957 E12.27206
G1 X130.807 Y105.560 E12.33504
G1 X129.712 Y105.266 E12.36653
G1 X128.109 Y106.870 E12.42951
G1 X128.402 Y107.965 E12.46100
G1 X126.799 Y109.568 E12.52398
G1 X125.704 Y109.274 E12.55547
G1 X124.402 Y110.576 E12.60660
G1 X127.408 Y110.576 E12.69009
G1 X127.262 Y110.031 E12.70577
G1 X128.865 Y108.427 E12.76875
G1 X129.960 Y108.721 E12.80024
G1 X131.563 Y107.118 E12.86322
G1 X131.270 Y106.023 E12.89471
G1 X132.873 Y104.419 E12.95769
G1 X133.968 Y104.713 E12.98918
G1 X135.571 Y103.110 E13.05216
G1 X135.278 Y102.015 E13.08365
G1 X135.576 Y101.716 E13.09536
G1 X135.576 Y104.030 E13.15964
G1 X134.431 Y105.176 E13.20462
G1 X134.724 Y106.271 E13.23611
G1 X133.121 Y107.874 E13.29909
