; generated by Slic3r 1.2.0 on 2014-11-22 at 01:07:12

; external perimeters extrusion width = 0.50mm
; perimeters extrusion width = 0.72mm
; infill extrusion width = 0.72mm
; solid infill extrusion width = 0.72mm
; top infill extrusion width = 0.72mm

G21 ; set units to millimeters
M107
M104 S200 ; set temperature
G28 ; home all axes
G1 Z5 F5000 ; lift nozzle

M109 S200 ; wait for temperature to be reached
G90 ; use absolute coordinates
G92 E0
M82 ; use absolute distances for extrusion
G1 F1800.000 E-1.00000
G92 E0
G1 Z0.350 F7800.000
G1 X63.433 Y75.524 F7800.000
G1 E1.00000 F1800.000
G1 X65.586 Y74.731 E1.07096 F600.000
G1 X66.765 Y74.625 E1.10761
G1 X67.765 Y74.625 E1.13855
G1 X70.024 Y75.022 E1.20952
G1 X72.012 Y76.165 E1.28048 F600.000
G1 X73.491 Y77.918 E1.35144
G1 X74.284 Y80.070 E1.42240
G1 X74.390 Y81.250 E1.45905
G1 X74.390 Y91.250 E1.76847
G1 X73.993 Y93.509 E1.83943
G1 X72.850 Y95.497 E1.91039
G1 X71.097 Y96.976 E1.98136
G1 X68.945 Y97.769 E2.05232
G1 X67.765 Y97.875 E2.08897
G1 X66.765 Y97.875 E2.11991
G1 X64.506 Y97.478 E2.19087
G1 X62.518 Y96.335 E2.26183
G1 X61.039 Y94.582 E2.33280
G1 X60.246 Y92.430 E2.40376
G1 X60.140 Y91.250 E2.44041
G1 X60.140 Y81.250 E2.74982
G1 X60.537 Y78.991 E2.82079
G1 X61.681 Y77.003 E2.89175
G1 X63.376 Y75.572 E2.96039
G1 F1800.000 E1.96039
G92 E0
G1 X67.265 Y91.250 F7800.000
G1 E1.00000 F1800.000
G1 X67.265 Y81.250 E1.30941 F600.000
M106 S255
G1 F1800.000 E0.30941
G92 E0
G1 Z0.650 F7800.000
G1 X67.015 Y81.500 F7800.000
G1 E1.00000 F1800.000
G1 X67.515 Y81.500 E1.00924 F600.000
G1 X67.515 Y91.000 E1.18488
G1 X67.015 Y91.000 E1.19413
G1 X67.015 Y81.575 E1.36838
G1 X67.448 Y81.750 F7800.000
G1 F1800.000 E0.36838
G92 E0
G1 Z0.950 F7800.000
G1 X67.515 Y88.500 F7800.000
G1 E1.00000 F1800.000
G1 X67.515 Y91.500 E1.05546 F600.000
M106 S255
G1 X67.015 Y91.500 E1.06935 F3600.000
M106 S255
G1 X67.015 Y88.500 E1.12482 F600.000
G1 X67.440 Y88.500 E1.13268
G1 F1800.000 E0.13268
G92 E0
G1 X67.448 Y91.750 F7800.000
G1 X67.515 Y87.600 F7800.000
G1 E1.00000 F1800.000
G1 X67.015 Y87.600 E1.00924 F600.000
G1 X67.015 Y81.500 E1.12202
G1 X67.515 Y81.500 E1.13127
G1 X67.515 Y87.525 E1.24266
G1 X67.082 Y87.350 F7800.000
G1 F1800.000 E0.24266
G92 E0
G1 X158.425 Y91.000 F7800.000
G1 E1.00000 F1800.000
M106 S255
G1 X148.925 Y91.000 E1.26389 F3600.000
G1 X148.925 Y88.000 E1.34722
G1 X158.425 Y88.000 E1.61111
G1 X158.425 Y90.925 E1.69236
M106 S255
G1 X148.425 Y91.000 F7800.000
M106 S255
G1 X138.925 Y91.000 E1.95625 F3600.000
G1 X138.925 Y88.000 E2.03958
G1 X148.425 Y88.000 E2.30347
G1 X148.425 Y90.925 E2.38472
M106 S255
G1 X138.425 Y91.000 F7800.000
M106 S255
G1 X128.925 Y91.000 E2.64861 F3600.000
G1 X128.925 Y88.000 E2.73194
G1 X138.425 Y88.000 E2.99583
G1 X138.425 Y90.925 E3.07708
M106 S255
G1 X128.425 Y91.000 F7800.000
M106 S255
G1 X118.925 Y91.000 E3.34097 F3600.000
G1 X118.925 Y88.000 E3.42431
G1 X128.425 Y88.000 E3.68819
G1 X128.425 Y90.925 E3.76944
M106 S255
G1 X118.425 Y91.000 F7800.000
M106 S255
G1 X108.925 Y91.000 E4.03333 F3600.000
G1 X108.925 Y88.000 E4.11667
G1 X118.425 Y88.000 E4.38056
G1 X118.425 Y90.925 E4.46181
M106 S255
G1 X108.425 Y91.000 F7800.000
M106 S255
G1 X98.925 Y91.000 E4.72569 F3600.000
G1 X98.925 Y88.000 E4.80903
G1 X108.425 Y88.000 E5.07292
G1 X108.425 Y90.925 E5.15417
M106 S255
G1 X98.425 Y91.000 F7800.000
M106 S255
G1 X88.925 Y91.000 E5.41806 F3600.000
G1 X88.925 Y88.000 E5.50139
G1 X98.425 Y88.000 E5.76528
G1 X98.425 Y90.925 E5.84653
M106 S255
G1 X88.425 Y91.000 F7800.000
M106 S255
G1 X78.925 Y91.000 E6.11042 F3600.000
G1 X78.925 Y88.000 E6.19375
G1 X88.425 Y88.000 E6.45764
G1 X88.425 Y90.925 E6.53889
M106 S255
G1 F1800.000 E5.53889
G92 E0
G1 X68.925 Y87.500 F7800.000
G1 E1.00000 F1800.000
M106 S255
G1 X78.425 Y87.500 E1.26389 F3600.000
G1 X78.425 Y81.500 E1.43056
G1 X78.925 Y81.500 E1.44444
G1 X78.925 Y87.500 E1.61111
G1 X88.425 Y87.500 E1.87500
G1 X88.425 Y81.500 E2.04167
G1 X88.925 Y81.500 E2.05556
G1 X88.925 Y87.500 E2.22222
G1 X98.425 Y87.500 E2.48611
G1 X98.425 Y81.500 E2.65278
G1 X98.925 Y81.500 E2.66667
G1 X98.925 Y87.500 E2.83333
G1 X108.425 Y87.500 E3.09722
G1 X108.425 Y81.500 E3.26389
G1 X108.925 Y81.500 E3.27778
G1 X108.925 Y87.500 E3.44444
G1 X118.425 Y87.500 E3.70833
G1 X118.425 Y81.500 E3.87500
G1 X118.925 Y81.500 E3.88889
G1 X118.925 Y87.500 E4.05556
G1 X128.425 Y87.500 E4.31944
G1 X128.425 Y81.500 E4.48611
G1 X128.925 Y81.500 E4.50000
G1 X128.925 Y87.500 E4.66667
G1 X138.425 Y87.500 E4.93056
G1 X138.425 Y81.500 E5.09722
G1 X138.925 Y81.500 E5.11111
G1 X138.925 Y87.500 E5.27778
G1 X148.425 Y87.500 E5.54167
G1 X148.425 Y81.500 E5.70833
G1 X148.925 Y81.500 E5.72222
G1 X148.925 Y87.500 E5.88889
G1 X158.425 Y87.500 E6.15278
G1 X158.425 Y81.500 E6.31944
G1 X158.925 Y81.500 E6.33333
G1 X158.925 Y87.500 E6.50000
G1 X168.271 Y87.500 E6.75960
G1 X168.021 Y88.000 E6.77513
G1 X158.925 Y88.000 E7.02778
G1 X158.925 Y91.000 E7.11111
G1 X168.425 Y91.000 E7.37500
G1 X168.425 Y91.500 E7.38889
G1 X68.925 Y91.500 E10.15278
G1 X68.925 Y91.000 E10.16667
G1 X78.425 Y91.000 E10.43056
G1 X78.425 Y88.000 E10.51389
G1 X68.925 Y88.000 E10.77778
G1 X68.925 Y91.000 E10.86111
G1 X68.425 Y91.000 E10.87500
G1 X68.425 Y81.500 E11.13889
G1 X68.925 Y81.500 E11.15278
G1 X68.925 Y87.425 E11.31736
M106 S255
G1 F1800.000 E10.31736
G92 E0
G1 X168.925 Y91.000 F7800.000
G1 E1.00000 F1800.000
M106 S255
G1 X168.425 Y91.000 E1.01389 F3600.000
G1 X168.425 Y88.500 E1.08333
G1 X168.925 Y88.500 E1.09722
G1 X168.925 Y90.925 E1.16458
M106 S255
G1 X168.925 Y87.300 F7800.000
M106 S255
G1 X168.425 Y87.182 E1.17885 F3600.000
G1 X168.425 Y81.500 E1.33669
G1 X168.925 Y81.500 E1.35057
G1 X168.925 Y87.225 E1.50960
M106 S255
G1 F1800.000 E0.50960
G92 E0
G1 Z1.250 F7800.000
G1 X67.515 Y91.000 F7800.000
G1 E1.00000 F1800.000
G1 X67.515 Y91.500 E1.00924 F1182.944
G1 X67.015 Y91.500 E1.01849
G1 X67.015 Y91.000 E1.02773
G1 X67.440 Y91.000 E1.03559
G1 X67.265 Y91.433 F7800.000
G1 F1800.000 E0.03559
G92 E0
G1 X67.015 Y88.000 F7800.000
G1 E1.00000 F1800.000
G1 X67.015 Y87.500 E1.00924 F1182.944
G1 X67.515 Y87.500 E1.01849
G1 X67.515 Y88.000 E1.02773
G1 X67.090 Y88.000 E1.03559
G1 X67.265 Y87.567 F7800.000
G1 F1800.000 E0.03559
G92 E0
G1 X148.925 Y88.000 F7800.000
G1 E1.00000 F1800.000
G1 X158.425 Y88.000 E1.17564 F1182.944
G1 X158.425 Y91.000 E1.23110
G1 X148.925 Y91.000 E1.40674
G1 X148.925 Y88.075 E1.46082
G1 X148.925 Y87.500 F7800.000
G1 X148.425 Y88.000 F7800.000
G1 X148.425 Y91.000 E1.51628 F1182.944
G1 X138.925 Y91.000 E1.69192
G1 X138.925 Y88.000 E1.74739
G1 X148.350 Y88.000 E1.92164
G1 X148.925 Y88.000 F7800.000
G1 X138.425 Y88.000 F7800.000
G1 X138.425 Y91.000 E1.97710 F1182.944
G1 X128.925 Y91.000 E2.15274
G1 X128.925 Y88.000 E2.20821
G1 X138.350 Y88.000 E2.38246
G1 X138.925 Y88.000 F7800.000
G1 X128.425 Y88.000 F7800.000
G1 X128.425 Y91.000 E2.43792 F1182.944
G1 X118.925 Y91.000 E2.61356
G1 X118.925 Y88.000 E2.66903
G1 X128.350 Y88.000 E2.84328
G1 X128.925 Y88.000 F7800.000
G1 X118.425 Y88.000 F7800.000
G1 X118.425 Y91.000 E2.89874 F1182.944
G1 X108.925 Y91.000 E3.07438
G1 X108.925 Y88.000 E3.12985
G1 X118.350 Y88.000 E3.30410
G1 X118.925 Y88.000 F7800.000
G1 X108.425 Y88.000 F7800.000
G1 X108.425 Y91.000 E3.35956 F1182.944
G1 X98.925 Y91.000 E3.53520
G1 X98.925 Y88.000 E3.59067
G1 X108.350 Y88.000 E3.76492
G1 X108.925 Y88.000 F7800.000
G1 X98.425 Y88.000 F7800.000
G1 X98.425 Y91.000 E3.82038 F1182.944
G1 X88.925 Y91.000 E3.99602
G1 X88.925 Y88.000 E4.05149
G1 X98.350 Y88.000 E4.22574
G1 X98.925 Y88.000 F7800.000
G1 X88.425 Y88.000 F7800.000
G1 X88.425 Y91.000 E4.28120 F1182.944
G1 X78.925 Y91.000 E4.45684
G1 X78.925 Y88.000 E4.51231
G1 X88.350 Y88.000 E4.68656
G1 X88.925 Y88.000 F7800.000
G1 X88.925 Y87.500 F7800.000
G1 X98.425 Y87.500 E4.86220 F1182.944
G1 X98.425 Y81.500 E4.97313
G1 X98.925 Y81.500 E4.98237
G1 X98.925 Y87.500 E5.09330
G1 X108.425 Y87.500 E5.26894
G1 X108.425 Y81.500 E5.37987
G1 X108.925 Y81.500 E5.38911
G1 X108.925 Y87.500 E5.50004
G1 X118.425 Y87.500 E5.67568
G1 X118.425 Y81.500 E5.78661
G1 X118.925 Y81.500 E5.79586
G1 X118.925 Y87.500 E5.90679
G1 X128.425 Y87.500 E6.08242
G1 X128.425 Y81.500 E6.19335
G1 X128.925 Y81.500 E6.20260
G1 X128.925 Y87.500 E6.31353
G1 X138.425 Y87.500 E6.48917
G1 X138.425 Y81.500 E6.60010
G1 X138.925 Y81.500 E6.60934
G1 X138.925 Y87.500 E6.72027
G1 X148.425 Y87.500 E6.89591
G1 X148.425 Y81.500 E7.00684
G1 X148.925 Y81.500 E7.01608
G1 X148.925 Y87.500 E7.12701
G1 X158.425 Y87.500 E7.30265
G1 X158.425 Y81.500 E7.41358
G1 X158.925 Y81.500 E7.42282
G1 X158.925 Y87.500 E7.53375
G1 X168.271 Y87.500 E7.70653
G1 X168.021 Y88.000 E7.71687
G1 X158.925 Y88.000 E7.88503
G1 X158.925 Y91.000 E7.94049
G1 X168.425 Y91.000 E8.11613
G1 X168.425 Y91.500 E8.12538
G1 X68.925 Y91.500 E9.96496
G1 X68.925 Y91.000 E9.97420
G1 X78.425 Y91.000 E10.14984
G1 X78.425 Y88.000 E10.20531
G1 X68.925 Y88.000 E10.38094
G1 X68.925 Y89.872 E10.41555
G1 X68.425 Y89.908 E10.42482
G1 X68.425 Y81.500 E10.58026
G1 X68.925 Y81.500 E10.58951
G1 X68.925 Y87.500 E10.70044
G1 X78.425 Y87.500 E10.87607
G1 X78.425 Y81.500 E10.98700
G1 X78.925 Y81.500 E10.99625
G1 X78.925 Y87.500 E11.10718
G1 X88.425 Y87.500 E11.28282
G1 X88.425 Y81.500 E11.39375
G1 X88.925 Y81.500 E11.40299
G1 X88.925 Y87.425 E11.51253
G1 X88.925 Y88.000 F7800.000
G1 F1800.000 E10.51253
G92 E0
G1 X168.425 Y88.500 F7800.000
G1 E1.00000 F1800.000
G1 X168.925 Y88.500 E1.00924 F1182.944
G1 X168.925 Y91.000 E1.05546
G1 X168.425 Y91.000 E1.06471
G1 X168.425 Y88.575 E1.10954
G1 X168.858 Y88.750 F7800.000
G1 X168.925 Y87.635 F7800.000
G1 X168.425 Y87.517 E1.11904 F1182.944
G1 X168.425 Y81.500 E1.23029
G1 X168.925 Y81.500 E1.23954
G1 X168.925 Y87.560 E1.35158
G1 X168.536 Y87.322 F7800.000
G1 F1800.000 E0.35158
G92 E0
G1 Z1.550 F7800.000
G1 X67.515 Y91.000 F7800.000
G1 E1.00000 F1800.000
G1 X67.515 Y91.500 E1.00924 F1184.384
G1 X67.015 Y91.500 E1.01849
G1 X67.015 Y91.000 E1.02773
G1 X67.440 Y91.000 E1.03559
G1 X67.265 Y91.433 F7800.000
G1 F1800.000 E0.03559
G92 E0
G1 X67.015 Y88.000 F7800.000
G1 E1.00000 F1800.000
G1 X67.015 Y87.500 E1.00924 F1184.384
G1 X67.515 Y87.500 E1.01849
G1 X67.515 Y88.000 E1.02773
G1 X67.090 Y88.000 E1.03559
G1 X67.265 Y87.567 F7800.000
G1 F1800.000 E0.03559
G92 E0
G1 X148.925 Y88.000 F7800.000
G1 E1.00000 F1800.000
G1 X158.425 Y88.000 E1.17564 F1184.384
G1 X158.425 Y91.000 E1.23110
G1 X148.925 Y91.000 E1.40674
G1 X148.925 Y88.075 E1.46082
G1 X148.925 Y87.500 F7800.000
G1 X148.425 Y88.000 F7800.000
G1 X148.425 Y91.000 E1.51628 F1184.384
G1 X138.925 Y91.000 E1.69192
G1 X138.925 Y88.000 E1.74739
G1 X148.350 Y88.000 E1.92164
G1 X148.925 Y88.000 F7800.000
G1 X138.425 Y88.000 F7800.000
G1 X138.425 Y91.000 E1.97710 F1184.384
G1 X128.925 Y91.000 E2.15274
G1 X128.925 Y88.000 E2.20821
G1 X138.350 Y88.000 E2.38246
G1 X138.925 Y88.000 F7800.000
G1 X128.425 Y88.000 F7800.000
G1 X128.425 Y91.000 E2.43792 F1184.384
G1 X118.925 Y91.000 E2.61356
G1 X118.925 Y88.000 E2.66903
G1 X128.350 Y88.000 E2.84328
G1 X128.925 Y88.000 F7800.000
G1 X118.425 Y88.000 F7800.000
G1 X118.425 Y91.000 E2.89874 F1184.384
G1 X108.925 Y91.000 E3.07438
G1 X108.925 Y88.000 E3.12985
G1 X118.350 Y88.000 E3.30410
G1 X118.925 Y88.000 F7800.000
G1 X108.425 Y88.000 F7800.000
G1 X108.425 Y91.000 E3.35956 F1184.384
G1 X98.925 Y91.000 E3.53520
G1 X98.925 Y88.000 E3.59067
G1 X108.350 Y88.000 E3.76492
G1 X108.925 Y88.000 F7800.000
G1 X98.425 Y88.000 F7800.000
G1 X98.425 Y91.000 E3.82038 F1184.384
G1 X88.925 Y91.000 E3.99602
G1 X88.925 Y88.000 E4.05149
G1 X98.350 Y88.000 E4.22574
G1 X98.925 Y88.000 F7800.000
G1 X88.425 Y88.000 F7800.000
G1 X88.425 Y91.000 E4.28120 F1184.384
G1 X78.925 Y91.000 E4.45684
G1 X78.925 Y88.000 E4.51231
G1 X88.350 Y88.000 E4.68656
G1 X88.925 Y88.000 F7800.000
G1 X88.925 Y87.500 F7800.000
G1 X98.425 Y87.500 E4.86220 F1184.384
G1 X98.425 Y81.500 E4.97313
G1 X98.925 Y81.500 E4.98237
G1 X98.925 Y87.500 E5.09330
G1 X108.425 Y87.500 E5.26894
G1 X108.425 Y81.500 E5.37987
G1 X108.925 Y81.500 E5.38911
G1 X108.925 Y87.500 E5.50004
G1 X118.425 Y87.500 E5.67568
G1 X118.425 Y81.500 E5.78661
G1 X118.925 Y81.500 E5.79586
G1 X118.925 Y87.500 E5.90679
G1 X128.425 Y87.500 E6.08242
G1 X128.425 Y81.500 E6.19335
G1 X128.925 Y81.500 E6.20260
G1 X128.925 Y87.500 E6.31353
G1 X138.425 Y87.500 E6.48917
G1 X138.425 Y81.500 E6.60010
G1 X138.925 Y81.500 E6.60934
G1 X138.925 Y87.500 E6.72027
G1 X148.425 Y87.500 E6.89591
G1 X148.425 Y81.500 E7.00684
G1 X148.925 Y81.500 E7.01608
G1 X148.925 Y87.500 E7.12701
G1 X158.425 Y87.500 E7.30265
G1 X158.425 Y81.500 E7.41358
G1 X158.925 Y81.500 E7.42282
G1 X158.925 Y87.500 E7.53375
G1 X168.271 Y87.500 E7.70653
G1 X168.021 Y88.000 E7.71687
G1 X158.925 Y88.000 E7.88503
G1 X158.925 Y91.000 E7.94049
G1 X168.425 Y91.000 E8.11613
G1 X168.425 Y91.500 E8.12538
G1 X68.925 Y91.500 E9.96496
G1 X68.925 Y91.000 E9.97420
G1 X78.425 Y91.000 E10.14984
G1 X78.425 Y88.000 E10.20531
G1 X68.925 Y88.000 E10.38094
G1 X68.925 Y88.811 E10.39594
G1 X68.425 Y88.847 E10.40521
G1 X68.425 Y81.500 E10.54104
G1 X68.925 Y81.500 E10.55029
G1 X68.925 Y87.500 E10.66122
G1 X78.425 Y87.500 E10.83685
G1 X78.425 Y81.500 E10.94778
G1 X78.925 Y81.500 E10.95703
G1 X78.925 Y87.500 E11.06796
G1 X88.425 Y87.500 E11.24360
G1 X88.425 Y81.500 E11.35453
G1 X88.925 Y81.500 E11.36377
G1 X88.925 Y87.425 E11.47331
G1 X88.925 Y88.000 F7800.000
G1 F1800.000 E10.47331
G92 E0
G1 X168.425 Y88.500 F7800.000
G1 E1.00000 F1800.000
G1 X168.925 Y88.500 E1.00924 F1184.384
G1 X168.925 Y91.000 E1.05546
G1 X168.425 Y91.000 E1.06471
G1 X168.425 Y88.575 E1.10954
G1 X168.858 Y88.750 F7800.000
G1 X168.925 Y87.971 F7800.000
G1 X168.425 Y87.853 E1.11904 F1184.384
G1 X168.425 Y81.500 E1.23649
G1 X168.925 Y81.500 E1.24574
G1 X168.925 Y87.896 E1.36398
G1 X168.536 Y87.657 F7800.000
G1 F1800.000 E0.36398
G92 E0
G1 X68.425 Y91.250 F7800.000
G1 E1.00000 F1800.000
G1 X68.425 Y90.750 E1.01389 F1184.384
G1 X68.508 Y90.462 E1.02222
G1 X68.508 Y89.092 E1.06028
G1 F1800.000 E0.06028
G92 E0
G1 Z1.850 F7800.000
G1 X67.515 Y91.000 F7800.000
G1 E1.00000 F1800.000
G1 X67.515 Y91.500 E1.00924 F1181.382
G1 X67.015 Y91.500 E1.01849
G1 X67.015 Y91.000 E1.02773
G1 X67.440 Y91.000 E1.03559
G1 X67.265 Y91.433 F7800.000
G1 F1800.000 E0.03559
G92 E0
G1 X67.015 Y88.000 F7800.000
G1 E1.00000 F1800.000
G1 X67.015 Y87.500 E1.00924 F1181.382
G1 X67.515 Y87.500 E1.01849
G1 X67.515 Y88.000 E1.02773
G1 X67.090 Y88.000 E1.03559
G1 X67.265 Y87.567 F7800.000
G1 F1800.000 E0.03559
G92 E0
G1 X158.925 Y88.000 F7800.000
G1 E1.00000 F1800.000
G1 X167.954 Y88.000 E1.16692 F1181.382
G1 X167.954 Y91.000 E1.22239
G1 X158.925 Y91.000 E1.38931
G1 X158.925 Y88.075 E1.44339
G1 X158.925 Y87.500 F7800.000
G1 X158.425 Y88.000 F7800.000
G1 X158.425 Y91.000 E1.49885 F1181.382
G1 X148.925 Y91.000 E1.67449
G1 X148.925 Y88.000 E1.72996
G1 X158.350 Y88.000 E1.90421
G1 X158.925 Y88.000 F7800.000
G1 F1800.000 E0.90421
G92 E0
G1 X148.425 Y88.000 F7800.000
G1 E1.00000 F1800.000
G1 X148.425 Y91.000 E1.05546 F1181.382
G1 X138.925 Y91.000 E1.23110
G1 X138.925 Y88.000 E1.28657
G1 X148.350 Y88.000 E1.46082
G1 X148.925 Y88.000 F7800.000
G1 F1800.000 E0.46082
G92 E0
G1 X138.425 Y88.000 F7800.000
G1 E1.00000 F1800.000
G1 X138.425 Y91.000 E1.05546 F1181.382
G1 X128.925 Y91.000 E1.23110
G1 X128.925 Y88.000 E1.28657
G1 X138.350 Y88.000 E1.46082
G1 X138.925 Y88.000 F7800.000
G1 F1800.000 E0.46082
G92 E0
G1 X128.425 Y88.000 F7800.000
G1 E1.00000 F1800.000
G1 X128.425 Y91.000 E1.05546 F1181.382
G1 X118.925 Y91.000 E1.23110
G1 X118.925 Y88.000 E1.28657
G1 X128.350 Y88.000 E1.46082
G1 X128.925 Y88.000 F7800.000
G1 F1800.000 E0.46082
G92 E0
G1 X118.425 Y88.000 F7800.000
G1 E1.00000 F1800.000
G1 X118.425 Y91.000 E1.05546 F1181.382
G1 X108.925 Y91.000 E1.23110
G1 X108.925 Y88.000 E1.28657
G1 X118.350 Y88.000 E1.46082
G1 X118.925 Y88.000 F7800.000
G1 F1800.000 E0.46082
G92 E0
G1 X108.425 Y88.000 F7800.000
G1 E1.00000 F1800.000
G1 X108.425 Y91.000 E1.05546 F1181.382
G1 X98.925 Y91.000 E1.23110
G1 X98.925 Y88.000 E1.28657
G1 X108.350 Y88.000 E1.46082
G1 X108.925 Y88.000 F7800.000
G1 F1800.000 E0.46082
G92 E0
G1 X98.425 Y88.000 F7800.000
G1 E1.00000 F1800.000
