; generated by Slic3r 1.2.0 on 2014-11-04 at 20:33:21

; external perimeters extrusion width = 0.50mm
; perimeters extrusion width = 0.72mm
; infill extrusion width = 0.72mm
; solid infill extrusion width = 0.72mm
; top infill extrusion width = 0.72mm

G21 ; set units to millimeters
M107
M104 S200 ; set temperature
G28 ; home all axes
G1 Z5 F5000 ; lift nozzle

M109 S200 ; wait for temperature to be reached
G90 ; use absolute coordinates
G92 E0
M82 ; use absolute distances for extrusion
G1 F1800.000 E-1.00000
G92 E0
G1 Z0.350 F7800.000
G1 X74.915 Y85.753 F7800.000
G1 E1.00000 F1800.000
G1 X76.668 Y84.274 E1.07096 F1080.000
G1 X78.820 Y83.481 E1.14192
G1 X80.000 Y83.375 E1.17858
G1 X120.000 Y83.375 E2.41623
G1 X122.259 Y83.772 E2.48719
G1 X124.247 Y84.915 E2.55815 F1080.000
G1 X125.726 Y86.668 E2.62912
G1 X126.519 Y88.820 E2.70008
G1 X126.625 Y90.000 E2.73673
G1 X126.625 Y100.000 E3.04614
G1 X126.228 Y102.259 E3.11710
G1 X125.085 Y104.247 E3.18807
G1 X123.332 Y105.726 E3.25903
G1 X121.180 Y106.519 E3.32999
G1 X120.000 Y106.625 E3.36664
G1 X80.000 Y106.625 E4.60429
G1 X77.741 Y106.228 E4.67526
G1 X75.753 Y105.085 E4.74622
G1 X74.274 Y103.332 E4.81718
G1 X73.481 Y101.180 E4.88814
G1 X73.375 Y100.000 E4.92480
G1 X73.375 Y90.000 E5.23421
G1 X73.772 Y87.741 E5.30517
G1 X74.878 Y85.818 E5.37381
G1 F1800.000 E4.37381
G92 E0
G1 X81.600 Y91.600 F7800.000
G1 E1.00000 F1800.000
G1 X88.400 Y91.600 E1.21041 F540.000
G1 X88.400 Y98.400 E1.42083
G1 X81.600 Y98.400 E1.63124
G1 X81.600 Y91.675 E1.83934
G1 X80.975 Y90.975 F7800.000
G1 X89.025 Y90.975 E2.08842 F540.000
G1 X89.025 Y99.025 E2.33751
G1 X80.975 Y99.025 E2.58659
G1 X80.975 Y91.050 E2.83336
G1 X80.350 Y90.350 F7800.000
G1 X89.650 Y90.350 E3.12111 F378.000
G1 X89.650 Y99.650 E3.40886
G1 X80.350 Y99.650 E3.69662
G1 X80.350 Y90.425 E3.98205
G1 X80.783 Y90.600 F7800.000
G1 X87.927 Y92.033 F7800.000
G1 X87.967 Y92.073 E3.98380 F1080.000
G1 X87.967 Y92.980 E4.01186
G1 X87.020 Y92.033 E4.05329
G1 X86.114 Y92.033 E4.08135
G1 X87.967 Y93.886 E4.16246
G1 X87.967 Y94.793 E4.19052
G1 X85.207 Y92.033 E4.31131
G1 X84.300 Y92.033 E4.33937
G1 X87.967 Y95.700 E4.49984
G1 X87.967 Y96.607 E4.52790
G1 X83.393 Y92.033 E4.72806
G1 X82.486 Y92.033 E4.75612
G1 X87.967 Y97.514 E4.99595
G1 X87.514 Y97.967 E5.01579
G1 X82.033 Y92.486 E5.25562
G1 X82.033 Y93.393 E5.28368
G1 X86.607 Y97.967 E5.48384
G1 X85.700 Y97.967 E5.51190
G1 X82.033 Y94.300 E5.67237
G1 X82.033 Y95.207 E5.70043
G1 X84.793 Y97.967 E5.82122
G1 X83.886 Y97.967 E5.84928
G1 X82.033 Y96.114 E5.93039
G1 X82.033 Y97.020 E5.95845
G1 X82.980 Y97.967 E5.99988
G1 X82.073 Y97.967 E6.02794
G1 X82.033 Y97.927 E6.02969
G1 F1800.000 E5.02969
G92 E0
G1 X111.600 Y98.400 F7800.000
G1 E1.00000 F1800.000
G1 X111.600 Y91.600 E1.21041 F540.000
G1 X118.400 Y91.600 E1.42083
G1 X118.400 Y98.400 E1.63124
G1 X111.675 Y98.400 E1.83934
G1 X110.975 Y99.025 F7800.000
G1 X110.975 Y90.975 E2.08842 F540.000
G1 X119.025 Y90.975 E2.33751
G1 X119.025 Y99.025 E2.58659
G1 X111.050 Y99.025 E2.83336
G1 X110.350 Y99.650 F7800.000
G1 X110.350 Y90.350 E3.12111 F378.000
G1 X119.650 Y90.350 E3.40886
G1 X119.650 Y99.650 E3.69662
G1 X110.425 Y99.650 E3.98205
G1 X110.600 Y99.217 F7800.000
G1 X112.033 Y97.927 F7800.000
G1 X112.073 Y97.967 E3.98380 F1080.000
G1 X112.980 Y97.967 E4.01186
G1 X112.033 Y97.020 E4.05329
G1 X112.033 Y96.114 E4.08135
G1 X113.886 Y97.967 E4.16246
G1 X114.793 Y97.967 E4.19052
G1 X112.033 Y95.207 E4.31131
G1 X112.033 Y94.300 E4.33937
G1 X115.700 Y97.967 E4.49984
G1 X116.607 Y97.967 E4.52790
G1 X112.033 Y93.393 E4.72806
G1 X112.033 Y92.486 E4.75612
G1 X117.514 Y97.967 E4.99595
G1 X117.967 Y97.514 E5.01579
G1 X112.486 Y92.033 E5.25562
G1 X113.393 Y92.033 E5.28368
G1 X117.967 Y96.607 E5.48384
G1 X117.967 Y95.700 E5.51190
G1 X114.300 Y92.033 E5.67237
G1 X115.207 Y92.033 E5.70043
G1 X117.967 Y94.793 E5.82122
G1 X117.967 Y93.886 E5.84928
G1 X116.114 Y92.033 E5.93039
G1 X117.020 Y92.033 E5.95845
G1 X117.967 Y92.980 E5.99988
G1 X117.967 Y92.073 E6.02794
G1 X117.927 Y92.033 E6.02969
M106 S255
G1 F1800.000 E5.02969
G92 E0
G1 Z0.650 F7800.000
G1 X88.550 Y91.450 F7800.000
G1 E1.00000 F1800.000
G1 X88.550 Y98.550 E1.19725 F602.356
G1 X81.450 Y98.550 E1.39449
G1 X81.450 Y91.450 E1.59174
G1 X88.475 Y91.450 E1.78690
G1 X89.205 Y90.795 F7800.000
G1 X89.205 Y99.205 E2.02051 F602.356
G1 X80.795 Y99.205 E2.25412
G1 X80.795 Y90.795 E2.48773
G1 X89.130 Y90.795 E2.71925
G1 X89.750 Y90.250 F7800.000
G1 X89.750 Y99.750 E2.89489 F600.000
G1 X80.250 Y99.750 E3.07053
G1 X80.250 Y90.250 E3.24617
G1 X89.675 Y90.250 E3.42042
G1 X89.500 Y90.683 F7800.000
G1 X88.096 Y98.056 F7800.000
G1 X88.056 Y98.096 E3.42199 F1204.712
G1 X87.110 Y98.096 E3.44828
G1 X88.096 Y97.110 E3.48703
G1 X88.096 Y96.163 E3.51332
G1 X86.163 Y98.096 E3.58925
G1 X85.217 Y98.096 E3.61554
G1 X88.096 Y95.217 E3.72866
G1 X88.096 Y94.270 E3.75495
G1 X84.270 Y98.096 E3.90524
G1 X83.324 Y98.096 E3.93153
G1 X88.096 Y93.324 E4.11900
G1 X88.096 Y92.377 E4.14529
G1 X82.377 Y98.096 E4.36994
G1 X81.904 Y97.623 E4.38853
G1 X87.623 Y91.904 E4.61318
G1 X86.676 Y91.904 E4.63947
G1 X81.904 Y96.676 E4.82694
G1 X81.904 Y95.730 E4.85323
G1 X85.730 Y91.904 E5.00352
G1 X84.783 Y91.904 E5.02981
G1 X81.904 Y94.783 E5.14292
G1 X81.904 Y93.837 E5.16921
G1 X83.837 Y91.904 E5.24515
G1 X82.890 Y91.904 E5.27144
G1 X81.904 Y92.890 E5.31019
G1 X81.904 Y91.944 E5.33648
G1 X81.944 Y91.904 E5.33805
G1 F1800.000 E4.33805
G92 E0
G1 X111.450 Y91.450 F7800.000
G1 E1.00000 F1800.000
G1 X118.550 Y91.450 E1.19725 F602.356
G1 X118.550 Y98.550 E1.39449
G1 X111.450 Y98.550 E1.59174
G1 X111.450 Y91.525 E1.78690
G1 X110.795 Y90.795 F7800.000
G1 X119.205 Y90.795 E2.02051 F602.356
G1 X119.205 Y99.205 E2.25412
G1 X110.795 Y99.205 E2.48773
G1 X110.795 Y90.870 E2.71925
G1 X110.250 Y90.250 F7800.000
G1 X119.750 Y90.250 E2.89489 F600.000
G1 X119.750 Y99.750 E3.07053
G1 X110.250 Y99.750 E3.24617
G1 X110.250 Y90.325 E3.42042
G1 X110.683 Y90.500 F7800.000
G1 X111.944 Y91.904 F7800.000
G1 X111.904 Y91.944 E3.42199 F1204.712
G1 X111.904 Y92.890 E3.44828
G1 X112.890 Y91.904 E3.48703
G1 X113.837 Y91.904 E3.51332
G1 X111.904 Y93.837 E3.58925
G1 X111.904 Y94.783 E3.61554
G1 X114.783 Y91.904 E3.72866
G1 X115.730 Y91.904 E3.75495
G1 X111.904 Y95.730 E3.90524
G1 X111.904 Y96.676 E3.93153
G1 X116.676 Y91.904 E4.11900
G1 X117.623 Y91.904 E4.14529
G1 X111.904 Y97.623 E4.36994
G1 X112.377 Y98.096 E4.38853
G1 X118.096 Y92.377 E4.61318
G1 X118.096 Y93.324 E4.63947
G1 X113.324 Y98.096 E4.82694
G1 X114.270 Y98.096 E4.85323
G1 X118.096 Y94.270 E5.00352
G1 X118.096 Y95.217 E5.02981
G1 X115.217 Y98.096 E5.14292
G1 X116.163 Y98.096 E5.16921
G1 X118.096 Y96.163 E5.24515
G1 X118.096 Y97.110 E5.27144
G1 X117.110 Y98.096 E5.31019
G1 X118.056 Y98.096 E5.33648
G1 X118.096 Y98.056 E5.33805
G1 F1800.000 E4.33805
G92 E0
G1 Z0.950 F7800.000
G1 X88.550 Y98.550 F7800.000
G1 E1.00000 F1800.000
G1 X81.450 Y98.550 E1.19725 F603.533
G1 X81.450 Y91.450 E1.39449
G1 X88.550 Y91.450 E1.59174
G1 X88.550 Y98.475 E1.78690
G1 X89.205 Y99.205 F7800.000
G1 X80.795 Y99.205 E2.02051 F603.533
G1 X80.795 Y90.795 E2.25412
G1 X89.205 Y90.795 E2.48773
G1 X89.205 Y99.130 E2.71925
G1 X90.066 Y99.750 F7800.000
G1 X80.250 Y99.750 E2.90074 F600.000
G1 X80.250 Y90.250 E3.07638
G1 X89.750 Y90.250 E3.25201
G1 X89.750 Y99.276 E3.41888
G1 X90.025 Y99.688 E3.42804
G1 X89.593 Y99.589 F7800.000
G1 X88.056 Y91.904 F7800.000
G1 X88.096 Y91.944 E3.42961 F1207.066
G1 X88.096 Y92.891 E3.45590
G1 X87.110 Y91.904 E3.49465
G1 X86.163 Y91.904 E3.52094
G1 X88.096 Y93.837 E3.59687
G1 X88.096 Y94.783 E3.62316
G1 X85.217 Y91.904 E3.73627
G1 X84.270 Y91.904 E3.76256
G1 X88.096 Y95.730 E3.91285
G1 X88.096 Y96.676 E3.93914
G1 X83.324 Y91.904 E4.12661
G1 X82.377 Y91.904 E4.15290
G1 X88.096 Y97.623 E4.37756
G1 X87.623 Y98.096 E4.39615
G1 X81.904 Y92.377 E4.62080
G1 X81.904 Y93.324 E4.64709
G1 X86.676 Y98.096 E4.83456
G1 X85.730 Y98.096 E4.86085
G1 X81.904 Y94.270 E5.01114
G1 X81.904 Y95.217 E5.03743
G1 X84.783 Y98.096 E5.15054
G1 X83.837 Y98.096 E5.17683
G1 X81.904 Y96.163 E5.25276
G1 X81.904 Y97.110 E5.27905
G1 X82.890 Y98.096 E5.31780
G1 X81.944 Y98.096 E5.34409
G1 X81.904 Y98.056 E5.34567
G1 F1800.000 E4.34567
G92 E0
G1 X111.450 Y98.550 F7800.000
G1 E1.00000 F1800.000
G1 X111.450 Y91.450 E1.19725 F603.533
G1 X118.550 Y91.450 E1.39449
G1 X118.550 Y98.550 E1.59174
G1 X111.525 Y98.550 E1.78690
G1 X110.795 Y99.205 F7800.000
G1 X110.795 Y90.795 E2.02051 F603.533
G1 X119.205 Y90.795 E2.25412
G1 X119.205 Y99.205 E2.48773
G1 X110.870 Y99.205 E2.71925
G1 X110.250 Y99.750 F7800.000
G1 X110.250 Y90.250 E2.89489 F600.000
G1 X119.750 Y90.250 E3.07053
G1 X119.750 Y99.750 E3.24617
G1 X110.325 Y99.750 E3.42042
G1 X110.500 Y99.317 F7800.000
G1 X111.904 Y98.056 F7800.000
G1 X111.944 Y98.096 E3.42199 F1207.066
G1 X112.890 Y98.096 E3.44828
G1 X111.904 Y97.110 E3.48703
G1 X111.904 Y96.163 E3.51332
G1 X113.837 Y98.096 E3.58925
G1 X114.783 Y98.096 E3.61554
G1 X111.904 Y95.217 E3.72866
G1 X111.904 Y94.270 E3.75495
G1 X115.730 Y98.096 E3.90524
G1 X116.676 Y98.096 E3.93153
G1 X111.904 Y93.324 E4.11900
G1 X111.904 Y92.377 E4.14529
G1 X117.623 Y98.096 E4.36994
G1 X118.096 Y97.623 E4.38853
G1 X112.377 Y91.904 E4.61318
G1 X113.324 Y91.904 E4.63947
G1 X118.096 Y96.676 E4.82694
G1 X118.096 Y95.730 E4.85323
G1 X114.270 Y91.904 E5.00352
G1 X115.217 Y91.904 E5.02981
G1 X118.096 Y94.783 E5.14292
G1 X118.096 Y93.837 E5.16921
G1 X116.163 Y91.904 E5.24515
G1 X117.110 Y91.904 E5.27144
G1 X118.096 Y92.890 E5.31019
G1 X118.096 Y91.944 E5.33648
G1 X118.056 Y91.904 E5.33805
G1 F1800.000 E4.33805
G92 E0
G1 Z1.250 F7800.000
G1 X88.550 Y91.450 F7800.000
G1 E1.00000 F1800.000
G1 X88.550 Y98.550 E1.19725 F603.355
G1 X81.450 Y98.550 E1.39449
G1 X81.450 Y91.450 E1.59174
G1 X88.475 Y91.450 E1.78690
G1 X89.205 Y90.795 F7800.000
G1 X89.205 Y99.205 E2.02051 F603.355
G1 X80.795 Y99.205 E2.25412
G1 X80.795 Y90.795 E2.48773
G1 X89.130 Y90.795 E2.71925
G1 X89.750 Y90.250 F7800.000
G1 X89.750 Y98.976 E2.88058 F600.000
G1 X90.118 Y99.528 E2.89285
G1 X89.896 Y99.750 E2.89865
G1 X80.250 Y99.750 E3.07700
G1 X80.250 Y90.250 E3.25264
G1 X89.675 Y90.250 E3.42689
G1 X89.500 Y90.683 F7800.000
G1 X88.096 Y98.056 F7800.000
G1 X88.056 Y98.096 E3.42846 F1206.710
G1 X87.109 Y98.096 E3.45475
G1 X88.096 Y97.110 E3.49350
G1 X88.096 Y96.163 E3.51979
G1 X86.163 Y98.096 E3.59572
G1 X85.217 Y98.096 E3.62201
G1 X88.096 Y95.217 E3.73512
G1 X88.096 Y94.270 E3.76141
G1 X84.270 Y98.096 E3.91170
G1 X83.324 Y98.096 E3.93799
G1 X88.096 Y93.324 E4.12546
G1 X88.096 Y92.377 E4.15175
G1 X82.377 Y98.096 E4.37640
G1 X81.904 Y97.623 E4.39499
G1 X87.623 Y91.904 E4.61964
G1 X86.676 Y91.904 E4.64594
G1 X81.904 Y96.676 E4.83341
G1 X81.904 Y95.730 E4.85970
G1 X85.730 Y91.904 E5.00999
G1 X84.783 Y91.904 E5.03628
G1 X81.904 Y94.783 E5.14939
G1 X81.904 Y93.837 E5.17568
G1 X83.837 Y91.904 E5.25161
G1 X82.890 Y91.904 E5.27790
G1 X81.904 Y92.891 E5.31665
G1 X81.904 Y91.944 E5.34294
G1 X81.944 Y91.904 E5.34451
G1 F1800.000 E4.34451
G92 E0
G1 X111.450 Y91.450 F7800.000
G1 E1.00000 F1800.000
G1 X118.550 Y91.450 E1.19725 F603.355
G1 X118.550 Y98.550 E1.39449
G1 X111.450 Y98.550 E1.59174
G1 X111.450 Y91.525 E1.78690
G1 X110.795 Y90.795 F7800.000
G1 X119.205 Y90.795 E2.02051 F603.355
G1 X119.205 Y99.205 E2.25412
G1 X110.795 Y99.205 E2.48773
G1 X110.795 Y90.870 E2.71925
G1 X110.250 Y90.250 F7800.000
G1 X119.750 Y90.250 E2.89489 F600.000
G1 X119.750 Y99.750 E3.07053
G1 X110.250 Y99.750 E3.24617
G1 X110.250 Y90.325 E3.42042
G1 X110.683 Y90.500 F7800.000
G1 X111.944 Y91.904 F7800.000
G1 X111.904 Y91.944 E3.42199 F1206.710
G1 X111.904 Y92.891 E3.44828
G1 X112.890 Y91.904 E3.48703
G1 X113.837 Y91.904 E3.51332
G1 X111.904 Y93.837 E3.58925
G1 X111.904 Y94.783 E3.61554
G1 X114.783 Y91.904 E3.72865
G1 X115.730 Y91.904 E3.75494
G1 X111.904 Y95.730 E3.90524
G1 X111.904 Y96.676 E3.93153
G1 X116.676 Y91.904 E4.11900
G1 X117.623 Y91.904 E4.14529
G1 X111.904 Y97.623 E4.36994
G1 X112.377 Y98.096 E4.38853
G1 X118.096 Y92.377 E4.61318
G1 X118.096 Y93.324 E4.63947
G1 X113.324 Y98.096 E4.82694
G1 X114.270 Y98.096 E4.85323
G1 X118.096 Y94.270 E5.00352
G1 X118.096 Y95.217 E5.02981
G1 X115.217 Y98.096 E5.14292
G1 X116.163 Y98.096 E5.16921
G1 X118.096 Y96.163 E5.24514
G1 X118.096 Y97.110 E5.27143
G1 X117.109 Y98.096 E5.31018
G1 X118.056 Y98.096 E5.33647
G1 X118.096 Y98.056 E5.33804
G1 F1800.000 E4.33804
G92 E0
G1 Z1.550 F7800.000
G1 X88.550 Y98.550 F7800.000
G1 E1.00000 F1800.000
G1 X81.450 Y98.550 E1.19725 F604.234
G1 X81.450 Y91.450 E1.39449
G1 X88.550 Y91.450 E1.59174
G1 X88.550 Y98.475 E1.78690
G1 X89.448 Y99.205 F7800.000
G1 X80.795 Y99.205 E2.02726 F604.234
G1 X80.795 Y90.795 E2.26086
G1 X89.205 Y90.795 E2.49447
G1 X89.205 Y98.841 E2.71796
G1 X89.406 Y99.143 E2.72804
G1 X90.238 Y99.408 F7800.000
G1 X89.896 Y99.750 E2.73698 F600.000
G1 X80.250 Y99.750 E2.91532
G1 X80.250 Y90.250 E3.09096
G1 X89.750 Y90.250 E3.26660
G1 X89.750 Y98.676 E3.42238
G1 X90.197 Y99.346 E3.43727
G1 X89.764 Y99.502 F7800.000
G1 X88.056 Y91.904 F7800.000
G1 X88.096 Y91.944 E3.43884 F1208.467
G1 X88.096 Y92.891 E3.46513
G1 X87.109 Y91.904 E3.50388
G1 X86.163 Y91.904 E3.53017
G1 X88.096 Y93.837 E3.60610
G1 X88.096 Y94.783 E3.63239
G1 X85.217 Y91.904 E3.74550
G1 X84.270 Y91.904 E3.77179
G1 X88.096 Y95.730 E3.92208
G1 X88.096 Y96.676 E3.94837
G1 X83.324 Y91.904 E4.13584
G1 X82.377 Y91.904 E4.16213
G1 X88.096 Y97.623 E4.38678
G1 X87.623 Y98.096 E4.40537
G1 X81.904 Y92.377 E4.63002
G1 X81.904 Y93.324 E4.65631
G1 X86.676 Y98.096 E4.84378
G1 X85.730 Y98.096 E4.87007
G1 X81.904 Y94.270 E5.02036
G1 X81.904 Y95.217 E5.04665
G1 X84.783 Y98.096 E5.15976
G1 X83.837 Y98.096 E5.18606
G1 X81.904 Y96.163 E5.26199
G1 X81.904 Y97.110 E5.28828
G1 X82.891 Y98.096 E5.32703
G1 X81.944 Y98.096 E5.35332
G1 X81.904 Y98.056 E5.35489
G1 F1800.000 E4.35489
G92 E0
G1 X111.450 Y98.550 F7800.000
G1 E1.00000 F1800.000
G1 X111.450 Y91.450 E1.19725 F604.234
G1 X118.550 Y91.450 E1.39449
G1 X118.550 Y98.550 E1.59174
G1 X111.525 Y98.550 E1.78690
G1 X110.795 Y99.205 F7800.000
G1 X110.795 Y90.795 E2.02051 F604.234
G1 X119.205 Y90.795 E2.25412
G1 X119.205 Y99.205 E2.48773
G1 X110.870 Y99.205 E2.71925
G1 X110.250 Y99.750 F7800.000
G1 X110.250 Y90.250 E2.89489 F600.000
G1 X119.750 Y90.250 E3.07053
G1 X119.750 Y99.750 E3.24617
G1 X110.325 Y99.750 E3.42042
G1 X110.500 Y99.317 F7800.000
G1 X111.904 Y98.056 F7800.000
G1 X111.944 Y98.096 E3.42199 F1208.467
G1 X112.890 Y98.096 E3.44828
G1 X111.904 Y97.110 E3.48703
G1 X111.904 Y96.163 E3.51332
G1 X113.837 Y98.096 E3.58925
G1 X114.783 Y98.096 E3.61554
G1 X111.904 Y95.217 E3.72865
G1 X111.904 Y94.270 E3.75494
G1 X115.730 Y98.096 E3.90524
G1 X116.676 Y98.096 E3.93153
G1 X111.904 Y93.324 E4.11900
G1 X111.904 Y92.377 E4.14529
G1 X117.623 Y98.096 E4.36994
G1 X118.096 Y97.623 E4.38853
G1 X112.377 Y91.904 E4.61318
G1 X113.324 Y91.904 E4.63947
G1 X118.096 Y96.676 E4.82694
G1 X118.096 Y95.730 E4.85323
G1 X114.270 Y91.904 E5.00352
G1 X115.217 Y91.904 E5.02981
G1 X118.096 Y94.783 E5.14292
G1 X118.096 Y93.837 E5.16921
G1 X116.163 Y91.904 E5.24514
G1 X117.109 Y91.904 E5.27143
G1 X118.096 Y92.891 E5.31018
G1 X118.096 Y91.944 E5.33647
G1 X118.056 Y91.904 E5.33804
G1 F1800.000 E4.33804
G92 E0
G1 Z1.850 F7800.000
G1 X88.550 Y91.450 F7800.000
G1 E1.00000 F1800.000
G1 X88.550 Y98.550 E1.19725 F605.000
G1 X81.450 Y98.550 E1.39449
G1 X81.450 Y91.450 E1.59174
G1 X88.475 Y91.450 E1.78690
G1 X89.205 Y90.795 F7800.000
G1 X89.205 Y98.541 E2.00206 F605.000
G1 X89.648 Y99.205 E2.02424
G1 X80.795 Y99.205 E2.27014
G1 X80.795 Y90.795 E2.50375
G1 X89.130 Y90.795 E2.73528
G1 X89.750 Y90.250 F7800.000
G1 X89.750 Y98.376 E2.88551 F600.000
G1 X90.358 Y99.288 E2.90578
G1 X89.896 Y99.750 E2.91786
G1 X80.250 Y99.750 E3.09620
G1 X80.250 Y90.250 E3.27184
G1 X89.675 Y90.250 E3.44609
G1 X89.500 Y90.683 F7800.000
G1 X88.096 Y98.056 F7800.000
G1 X88.056 Y98.096 E3.44767 F1210.001
G1 X87.109 Y98.096 E3.47396
G1 X88.096 Y97.110 E3.51271
G1 X88.096 Y96.163 E3.53900
G1 X86.163 Y98.096 E3.61493
G1 X85.217 Y98.096 E3.64122
G1 X88.096 Y95.217 E3.75433
G1 X88.096 Y94.270 E3.78062
G1 X84.270 Y98.096 E3.93091
G1 X83.324 Y98.096 E3.95720
